; Generated by AI Plotter
G21 ; set units to mm
G90 ; absolute positioning
G1 Z5.00 F1200
G0 X37.25 Y9.00
G1 Z0.00 F1200
G1 X38.50 Y9.00 F1200
G1 Z5.00 F1200
G0 X60.75 Y9.25
G1 Z0.00 F1200
G1 X63.50 Y9.25 F1200
G1 Z5.00 F1200
G0 X36.00 Y9.50
G1 Z0.00 F1200
G1 X40.00 Y9.50 F1200
G1 Z5.00 F1200
G0 X59.50 Y9.75
G1 Z0.00 F1200
G1 X64.50 Y9.75 F1200
G1 Z5.00 F1200
G0 X35.00 Y10.00
G1 Z0.00 F1200
G1 X40.75 Y10.00 F1200
G1 Z5.00 F1200
G0 X58.75 Y10.25
G1 Z0.00 F1200
G1 X65.25 Y10.25 F1200
G1 Z5.00 F1200
G0 X34.25 Y10.50
G1 Z0.00 F1200
G1 X37.75 Y10.50 F1200
G1 Z5.00 F1200
G0 X38.50 Y10.50
G1 Z0.00 F1200
G1 X41.50 Y10.50 F1200
G1 Z5.00 F1200
G0 X58.00 Y10.75
G1 Z0.00 F1200
G1 X60.50 Y10.75 F1200
G1 Z5.00 F1200
G0 X63.50 Y10.75
G1 Z0.00 F1200
G1 X66.00 Y10.75 F1200
G1 Z5.00 F1200
G0 X33.75 Y11.00
G1 Z0.00 F1200
G1 X36.00 Y11.00 F1200
G1 Z5.00 F1200
G0 X40.00 Y11.00
G1 Z0.00 F1200
G1 X42.25 Y11.00 F1200
G1 Z5.00 F1200
G0 X57.25 Y11.25
G1 Z0.00 F1200
G1 X59.50 Y11.25 F1200
G1 Z5.00 F1200
G0 X64.50 Y11.25
G1 Z0.00 F1200
G1 X66.50 Y11.25 F1200
G1 Z5.00 F1200
G0 X33.25 Y11.50
G1 Z0.00 F1200
G1 X35.25 Y11.50 F1200
G1 Z5.00 F1200
G0 X35.75 Y11.50
G1 Z0.00 F1200
G1 X39.75 Y11.50 F1200
G1 Z5.00 F1200
G0 X41.25 Y11.50
G1 Z0.00 F1200
G1 X43.25 Y11.50 F1200
G1 Z5.00 F1200
G0 X52.25 Y11.75
G1 Z0.00 F1200
G1 X54.25 Y11.75 F1200
G1 Z5.00 F1200
G0 X55.75 Y11.75
G1 Z0.00 F1200
G1 X58.50 Y11.75 F1200
G1 Z5.00 F1200
G0 X59.00 Y11.75
G1 Z0.00 F1200
G1 X67.00 Y11.75 F1200
G1 Z5.00 F1200
G0 X32.75 Y12.00
G1 Z0.00 F1200
G1 X48.50 Y12.00 F1200
G1 Z5.00 F1200
G0 X51.25 Y12.25
G1 Z0.00 F1200
G1 X51.50 Y12.25 F1200
G1 Z5.00 F1200
G0 X53.25 Y12.25
G1 Z0.00 F1200
G1 X67.50 Y12.25 F1200
G1 Z5.00 F1200
G0 X32.25 Y12.50
G1 Z0.00 F1200
G1 X45.75 Y12.50 F1200
G1 Z5.00 F1200
G0 X53.75 Y12.75
G1 Z0.00 F1200
G1 X61.00 Y12.75 F1200
G1 Z5.00 F1200
G0 X64.75 Y12.75
G1 Z0.00 F1200
G1 X68.00 Y12.75 F1200
G1 Z5.00 F1200
G0 X31.75 Y13.00
G1 Z0.00 F1200
G1 X34.50 Y13.00 F1200
G1 Z5.00 F1200
G0 X39.75 Y13.00
G1 Z0.00 F1200
G1 X47.75 Y13.00 F1200
G1 Z5.00 F1200
G0 X50.50 Y13.25
G1 Z0.00 F1200
G1 X63.75 Y13.25 F1200
G1 Z5.00 F1200
G0 X66.00 Y13.25
G1 Z0.00 F1200
G1 X68.25 Y13.25 F1200
G1 Z5.00 F1200
G0 X31.50 Y13.50
G1 Z0.00 F1200
G1 X33.50 Y13.50 F1200
G1 Z5.00 F1200
G0 X35.50 Y13.50
G1 Z0.00 F1200
G1 X50.75 Y13.50 F1200
G1 Z5.00 F1200
G0 X48.50 Y13.75
G1 Z0.00 F1200
G1 X65.00 Y13.75 F1200
G1 Z5.00 F1200
G0 X66.75 Y13.75
G1 Z0.00 F1200
G1 X68.75 Y13.75 F1200
G1 Z5.00 F1200
G0 X31.25 Y14.00
G1 Z0.00 F1200
G1 X33.00 Y14.00 F1200
G1 Z5.00 F1200
G0 X34.50 Y14.00
G1 Z0.00 F1200
G1 X52.25 Y14.00 F1200
G1 Z5.00 F1200
G0 X47.25 Y14.25
G1 Z0.00 F1200
G1 X63.50 Y14.25 F1200
G1 Z5.00 F1200
G0 X64.00 Y14.25
G1 Z0.00 F1200
G1 X66.00 Y14.25 F1200
G1 Z5.00 F1200
G0 X67.25 Y14.25
G1 Z0.00 F1200
G1 X69.00 Y14.25 F1200
G1 Z5.00 F1200
G0 X31.00 Y14.50
G1 Z0.00 F1200
G1 X32.50 Y14.50 F1200
G1 Z5.00 F1200
G0 X33.75 Y14.50
G1 Z0.00 F1200
G1 X35.25 Y14.50 F1200
G1 Z5.00 F1200
G0 X36.25 Y14.50
G1 Z0.00 F1200
G1 X53.00 Y14.50 F1200
G1 Z5.00 F1200
G0 X46.50 Y14.75
G1 Z0.00 F1200
G1 X56.75 Y14.75 F1200
G1 Z5.00 F1200
G0 X59.00 Y14.75
G1 Z0.00 F1200
G1 X64.25 Y14.75 F1200
G1 Z5.00 F1200
G0 X65.25 Y14.75
G1 Z0.00 F1200
G1 X66.50 Y14.75 F1200
G1 Z5.00 F1200
G0 X67.75 Y14.75
G1 Z0.00 F1200
G1 X69.25 Y14.75 F1200
G1 Z5.00 F1200
G0 X30.75 Y15.00
G1 Z0.00 F1200
G1 X32.00 Y15.00 F1200
G1 Z5.00 F1200
G0 X33.25 Y15.00
G1 Z0.00 F1200
G1 X34.25 Y15.00 F1200
G1 Z5.00 F1200
G0 X35.25 Y15.00
G1 Z0.00 F1200
G1 X39.75 Y15.00 F1200
G1 Z5.00 F1200
G0 X44.25 Y15.00
G1 Z0.00 F1200
G1 X53.75 Y15.00 F1200
G1 Z5.00 F1200
G0 X45.75 Y15.25
G1 Z0.00 F1200
G1 X55.00 Y15.25 F1200
G1 Z5.00 F1200
G0 X61.00 Y15.25
G1 Z0.00 F1200
G1 X65.00 Y15.25 F1200
G1 Z5.00 F1200
G0 X66.00 Y15.25
G1 Z0.00 F1200
G1 X67.00 Y15.25 F1200
G1 Z5.00 F1200
G0 X68.00 Y15.25
G1 Z0.00 F1200
G1 X69.25 Y15.25 F1200
G1 Z5.00 F1200
G0 X30.50 Y15.50
G1 Z0.00 F1200
G1 X31.75 Y15.50 F1200
G1 Z5.00 F1200
G0 X32.75 Y15.50
G1 Z0.00 F1200
G1 X33.75 Y15.50 F1200
G1 Z5.00 F1200
G0 X34.75 Y15.50
G1 Z0.00 F1200
G1 X38.50 Y15.50 F1200
G1 Z5.00 F1200
G0 X45.50 Y15.50
G1 Z0.00 F1200
G1 X47.75 Y15.50 F1200
G1 Z5.00 F1200
G0 X48.00 Y15.50
G1 Z0.00 F1200
G1 X54.50 Y15.50 F1200
G1 Z5.00 F1200
G0 X45.50 Y15.75
G1 Z0.00 F1200
G1 X51.25 Y15.75 F1200
G1 Z5.00 F1200
G0 X52.00 Y15.75
G1 Z0.00 F1200
G1 X54.25 Y15.75 F1200
G1 Z5.00 F1200
G0 X62.00 Y15.75
G1 Z0.00 F1200
G1 X65.50 Y15.75 F1200
G1 Z5.00 F1200
G0 X66.50 Y15.75
G1 Z0.00 F1200
G1 X67.25 Y15.75 F1200
G1 Z5.00 F1200
G0 X68.50 Y15.75
G1 Z0.00 F1200
G1 X69.50 Y15.75 F1200
G1 Z5.00 F1200
G0 X30.50 Y16.00
G1 Z0.00 F1200
G1 X31.50 Y16.00 F1200
G1 Z5.00 F1200
G0 X32.50 Y16.00
G1 Z0.00 F1200
G1 X33.25 Y16.00 F1200
G1 Z5.00 F1200
G0 X34.25 Y16.00
G1 Z0.00 F1200
G1 X37.75 Y16.00 F1200
G1 Z5.00 F1200
G0 X41.75 Y16.00
G1 Z0.00 F1200
G1 X44.75 Y16.00 F1200
G1 Z5.00 F1200
G0 X46.25 Y16.00
G1 Z0.00 F1200
G1 X48.25 Y16.00 F1200
G1 Z5.00 F1200
G0 X49.50 Y16.00
G1 Z0.00 F1200
G1 X54.75 Y16.00 F1200
G1 Z5.00 F1200
G0 X45.00 Y16.25
G1 Z0.00 F1200
G1 X50.25 Y16.25 F1200
G1 Z5.00 F1200
G0 X51.50 Y16.25
G1 Z0.00 F1200
G1 X53.50 Y16.25 F1200
G1 Z5.00 F1200
G0 X54.75 Y16.25
G1 Z0.00 F1200
G1 X59.00 Y16.25 F1200
G1 Z5.00 F1200
G0 X62.75 Y16.25
G1 Z0.00 F1200
G1 X66.00 Y16.25 F1200
G1 Z5.00 F1200
G0 X67.00 Y16.25
G1 Z0.00 F1200
G1 X67.75 Y16.25 F1200
G1 Z5.00 F1200
G0 X68.50 Y16.25
G1 Z0.00 F1200
G1 X69.75 Y16.25 F1200
G1 Z5.00 F1200
G0 X30.00 Y16.50
G1 Z0.00 F1200
G1 X31.25 Y16.50 F1200
G1 Z5.00 F1200
G0 X32.25 Y16.50
G1 Z0.00 F1200
G1 X32.75 Y16.50 F1200
G1 Z5.00 F1200
G0 X34.00 Y16.50
G1 Z0.00 F1200
G1 X37.00 Y16.50 F1200
G1 Z5.00 F1200
G0 X40.50 Y16.50
G1 Z0.00 F1200
G1 X45.75 Y16.50 F1200
G1 Z5.00 F1200
G0 X46.75 Y16.50
G1 Z0.00 F1200
G1 X48.50 Y16.50 F1200
G1 Z5.00 F1200
G0 X50.25 Y16.50
G1 Z0.00 F1200
G1 X55.25 Y16.50 F1200
G1 Z5.00 F1200
G0 X44.75 Y16.75
G1 Z0.00 F1200
G1 X49.50 Y16.75 F1200
G1 Z5.00 F1200
G0 X51.25 Y16.75
G1 Z0.00 F1200
G1 X53.00 Y16.75 F1200
G1 Z5.00 F1200
G0 X53.75 Y16.75
G1 Z0.00 F1200
G1 X60.00 Y16.75 F1200
G1 Z5.00 F1200
G0 X63.25 Y16.75
G1 Z0.00 F1200
G1 X66.25 Y16.75 F1200
G1 Z5.00 F1200
G0 X67.25 Y16.75
G1 Z0.00 F1200
G1 X68.00 Y16.75 F1200
G1 Z5.00 F1200
G0 X68.75 Y16.75
G1 Z0.00 F1200
G1 X70.50 Y16.75 F1200
G1 Z5.00 F1200
G0 X29.25 Y17.00
G1 Z0.00 F1200
G1 X31.00 Y17.00 F1200
G1 Z5.00 F1200
G0 X32.00 Y17.00
G1 Z0.00 F1200
G1 X32.50 Y17.00 F1200
G1 Z5.00 F1200
G0 X33.50 Y17.00
G1 Z0.00 F1200
G1 X36.25 Y17.00 F1200
G1 Z5.00 F1200
G0 X39.75 Y17.00
G1 Z0.00 F1200
G1 X46.50 Y17.00 F1200
G1 Z5.00 F1200
G0 X47.25 Y17.00
G1 Z0.00 F1200
G1 X49.00 Y17.00 F1200
G1 Z5.00 F1200
G0 X50.75 Y17.00
G1 Z0.00 F1200
G1 X55.50 Y17.00 F1200
G1 Z5.00 F1200
G0 X44.25 Y17.25
G1 Z0.00 F1200
G1 X49.00 Y17.25 F1200
G1 Z5.00 F1200
G0 X50.75 Y17.25
G1 Z0.00 F1200
G1 X52.50 Y17.25 F1200
G1 Z5.00 F1200
G0 X53.25 Y17.25
G1 Z0.00 F1200
G1 X60.50 Y17.25 F1200
G1 Z5.00 F1200
G0 X64.00 Y17.25
G1 Z0.00 F1200
G1 X66.75 Y17.25 F1200
G1 Z5.00 F1200
G0 X67.50 Y17.25
G1 Z0.00 F1200
G1 X68.25 Y17.25 F1200
G1 Z5.00 F1200
G0 X69.00 Y17.25
G1 Z0.00 F1200
G1 X71.00 Y17.25 F1200
G1 Z5.00 F1200
G0 X28.75 Y17.50
G1 Z0.00 F1200
G1 X31.00 Y17.50 F1200
G1 Z5.00 F1200
G0 X31.75 Y17.50
G1 Z0.00 F1200
G1 X32.25 Y17.50 F1200
G1 Z5.00 F1200
G0 X33.25 Y17.50
G1 Z0.00 F1200
G1 X34.50 Y17.50 F1200
G1 Z5.00 F1200
G0 X35.00 Y17.50
G1 Z0.00 F1200
G1 X35.75 Y17.50 F1200
G1 Z5.00 F1200
G0 X39.00 Y17.50
G1 Z0.00 F1200
G1 X47.25 Y17.50 F1200
G1 Z5.00 F1200
G0 X47.75 Y17.50
G1 Z0.00 F1200
G1 X49.75 Y17.50 F1200
G1 Z5.00 F1200
G0 X51.25 Y17.50
G1 Z0.00 F1200
G1 X55.75 Y17.50 F1200
G1 Z5.00 F1200
G0 X44.00 Y17.75
G1 Z0.00 F1200
G1 X48.50 Y17.75 F1200
G1 Z5.00 F1200
G0 X49.75 Y17.75
G1 Z0.00 F1200
G1 X52.00 Y17.75 F1200
G1 Z5.00 F1200
G0 X52.50 Y17.75
G1 Z0.00 F1200
G1 X61.25 Y17.75 F1200
G1 Z5.00 F1200
G0 X64.50 Y17.75
G1 Z0.00 F1200
G1 X65.25 Y17.75 F1200
G1 Z5.00 F1200
G0 X65.75 Y17.75
G1 Z0.00 F1200
G1 X67.00 Y17.75 F1200
G1 Z5.00 F1200
G0 X67.75 Y17.75
G1 Z0.00 F1200
G1 X68.50 Y17.75 F1200
G1 Z5.00 F1200
G0 X69.25 Y17.75
G1 Z0.00 F1200
G1 X71.50 Y17.75 F1200
G1 Z5.00 F1200
G0 X28.25 Y18.00
G1 Z0.00 F1200
G1 X30.75 Y18.00 F1200
G1 Z5.00 F1200
G0 X31.50 Y18.00
G1 Z0.00 F1200
G1 X32.00 Y18.00 F1200
G1 Z5.00 F1200
G0 X33.00 Y18.00
G1 Z0.00 F1200
G1 X34.00 Y18.00 F1200
G1 Z5.00 F1200
G0 X34.50 Y18.00
G1 Z0.00 F1200
G1 X35.25 Y18.00 F1200
G1 Z5.00 F1200
G0 X37.25 Y18.00
G1 Z0.00 F1200
G1 X37.75 Y18.00 F1200
G1 Z5.00 F1200
G0 X38.50 Y18.00
G1 Z0.00 F1200
G1 X47.75 Y18.00 F1200
G1 Z5.00 F1200
G0 X48.25 Y18.00
G1 Z0.00 F1200
G1 X50.50 Y18.00 F1200
G1 Z5.00 F1200
G0 X51.75 Y18.00
G1 Z0.00 F1200
G1 X56.00 Y18.00 F1200
G1 Z5.00 F1200
G0 X44.00 Y18.25
G1 Z0.00 F1200
G1 X48.00 Y18.25 F1200
G1 Z5.00 F1200
G0 X49.25 Y18.25
G1 Z0.00 F1200
G1 X51.50 Y18.25 F1200
G1 Z5.00 F1200
G0 X52.00 Y18.25
G1 Z0.00 F1200
G1 X59.50 Y18.25 F1200
G1 Z5.00 F1200
G0 X59.75 Y18.25
G1 Z0.00 F1200
G1 X61.75 Y18.25 F1200
G1 Z5.00 F1200
G0 X62.50 Y18.25
G1 Z0.00 F1200
G1 X63.25 Y18.25 F1200
G1 Z5.00 F1200
G0 X64.75 Y18.25
G1 Z0.00 F1200
G1 X65.75 Y18.25 F1200
G1 Z5.00 F1200
G0 X66.00 Y18.25
G1 Z0.00 F1200
G1 X67.25 Y18.25 F1200
G1 Z5.00 F1200
G0 X68.00 Y18.25
G1 Z0.00 F1200
G1 X68.75 Y18.25 F1200
G1 Z5.00 F1200
G0 X69.25 Y18.25
G1 Z0.00 F1200
G1 X72.00 Y18.25 F1200
G1 Z5.00 F1200
G0 X27.75 Y18.50
G1 Z0.00 F1200
G1 X30.50 Y18.50 F1200
G1 Z5.00 F1200
G0 X31.25 Y18.50
G1 Z0.00 F1200
G1 X32.00 Y18.50 F1200
G1 Z5.00 F1200
G0 X32.75 Y18.50
G1 Z0.00 F1200
G1 X33.75 Y18.50 F1200
G1 Z5.00 F1200
G0 X34.25 Y18.50
G1 Z0.00 F1200
G1 X35.00 Y18.50 F1200
G1 Z5.00 F1200
G0 X36.50 Y18.50
G1 Z0.00 F1200
G1 X37.25 Y18.50 F1200
G1 Z5.00 F1200
G0 X38.00 Y18.50
G1 Z0.00 F1200
G1 X39.50 Y18.50 F1200
G1 Z5.00 F1200
G0 X40.25 Y18.50
G1 Z0.00 F1200
G1 X48.25 Y18.50 F1200
G1 Z5.00 F1200
G0 X48.75 Y18.50
G1 Z0.00 F1200
G1 X51.00 Y18.50 F1200
G1 Z5.00 F1200
G0 X52.00 Y18.50
G1 Z0.00 F1200
G1 X56.25 Y18.50 F1200
G1 Z5.00 F1200
G0 X43.75 Y18.75
G1 Z0.00 F1200
G1 X47.75 Y18.75 F1200
G1 Z5.00 F1200
G0 X48.75 Y18.75
G1 Z0.00 F1200
G1 X51.25 Y18.75 F1200
G1 Z5.00 F1200
G0 X51.50 Y18.75
G1 Z0.00 F1200
G1 X60.25 Y18.75 F1200
G1 Z5.00 F1200
G0 X61.00 Y18.75
G1 Z0.00 F1200
G1 X62.00 Y18.75 F1200
G1 Z5.00 F1200
G0 X63.00 Y18.75
G1 Z0.00 F1200
G1 X64.00 Y18.75 F1200
G1 Z5.00 F1200
G0 X65.25 Y18.75
G1 Z0.00 F1200
G1 X66.00 Y18.75 F1200
G1 Z5.00 F1200
G0 X66.50 Y18.75
G1 Z0.00 F1200
G1 X67.50 Y18.75 F1200
G1 Z5.00 F1200
G0 X68.25 Y18.75
G1 Z0.00 F1200
G1 X68.75 Y18.75 F1200
G1 Z5.00 F1200
G0 X69.50 Y18.75
G1 Z0.00 F1200
G1 X70.25 Y18.75 F1200
G1 Z5.00 F1200
G0 X70.50 Y18.75
G1 Z0.00 F1200
G1 X70.75 Y18.75 F1200
G1 Z5.00 F1200
G0 X71.00 Y18.75
G1 Z0.00 F1200
G1 X72.25 Y18.75 F1200
G1 Z5.00 F1200
G0 X27.50 Y19.00
G1 Z0.00 F1200
G1 X28.75 Y19.00 F1200
G1 Z5.00 F1200
G0 X29.00 Y19.00
G1 Z0.00 F1200
G1 X29.50 Y19.00 F1200
G1 Z5.00 F1200
G0 X29.75 Y19.00
G1 Z0.00 F1200
G1 X30.50 Y19.00 F1200
G1 Z5.00 F1200
G0 X31.00 Y19.00
G1 Z0.00 F1200
G1 X31.75 Y19.00 F1200
G1 Z5.00 F1200
G0 X32.50 Y19.00
G1 Z0.00 F1200
G1 X33.50 Y19.00 F1200
G1 Z5.00 F1200
G0 X33.75 Y19.00
G1 Z0.00 F1200
G1 X34.50 Y19.00 F1200
G1 Z5.00 F1200
G0 X35.75 Y19.00
G1 Z0.00 F1200
G1 X36.75 Y19.00 F1200
G1 Z5.00 F1200
G0 X37.75 Y19.00
G1 Z0.00 F1200
G1 X38.50 Y19.00 F1200
G1 Z5.00 F1200
G0 X39.25 Y19.00
G1 Z0.00 F1200
G1 X42.25 Y19.00 F1200
G1 Z5.00 F1200
G0 X44.75 Y19.00
G1 Z0.00 F1200
G1 X48.75 Y19.00 F1200
G1 Z5.00 F1200
G0 X49.00 Y19.00
G1 Z0.00 F1200
G1 X51.50 Y19.00 F1200
G1 Z5.00 F1200
G0 X52.50 Y19.00
G1 Z0.00 F1200
G1 X56.50 Y19.00 F1200
G1 Z5.00 F1200
G0 X43.50 Y19.25
G1 Z0.00 F1200
G1 X47.50 Y19.25 F1200
G1 Z5.00 F1200
G0 X48.25 Y19.25
G1 Z0.00 F1200
G1 X50.75 Y19.25 F1200
G1 Z5.00 F1200
G0 X51.00 Y19.25
G1 Z0.00 F1200
G1 X54.50 Y19.25 F1200
G1 Z5.00 F1200
G0 X58.50 Y19.25
G1 Z0.00 F1200
G1 X61.00 Y19.25 F1200
G1 Z5.00 F1200
G0 X61.75 Y19.25
G1 Z0.00 F1200
G1 X62.50 Y19.25 F1200
G1 Z5.00 F1200
G0 X63.50 Y19.25
G1 Z0.00 F1200
G1 X64.50 Y19.25 F1200
G1 Z5.00 F1200
G0 X65.50 Y19.25
G1 Z0.00 F1200
G1 X66.25 Y19.25 F1200
G1 Z5.00 F1200
G0 X66.75 Y19.25
G1 Z0.00 F1200
G1 X67.75 Y19.25 F1200
G1 Z5.00 F1200
G0 X68.25 Y19.25
G1 Z0.00 F1200
G1 X69.00 Y19.25 F1200
G1 Z5.00 F1200
G0 X69.50 Y19.25
G1 Z0.00 F1200
G1 X70.50 Y19.25 F1200
G1 Z5.00 F1200
G0 X70.75 Y19.25
G1 Z0.00 F1200
G1 X71.00 Y19.25 F1200
G1 Z5.00 F1200
G0 X71.25 Y19.25
G1 Z0.00 F1200
G1 X72.50 Y19.25 F1200
G1 Z5.00 F1200
G0 X27.25 Y19.50
G1 Z0.00 F1200
G1 X28.00 Y19.50 F1200
G1 Z5.00 F1200
G0 X28.25 Y19.50
G1 Z0.00 F1200
G1 X28.75 Y19.50 F1200
G1 Z5.00 F1200
G0 X29.00 Y19.50
G1 Z0.00 F1200
G1 X29.25 Y19.50 F1200
G1 Z5.00 F1200
G0 X29.50 Y19.50
G1 Z0.00 F1200
G1 X30.50 Y19.50 F1200
G1 Z5.00 F1200
G0 X31.00 Y19.50
G1 Z0.00 F1200
G1 X31.50 Y19.50 F1200
G1 Z5.00 F1200
G0 X32.25 Y19.50
G1 Z0.00 F1200
G1 X33.25 Y19.50 F1200
G1 Z5.00 F1200
G0 X33.50 Y19.50
G1 Z0.00 F1200
G1 X34.25 Y19.50 F1200
G1 Z5.00 F1200
G0 X35.25 Y19.50
G1 Z0.00 F1200
G1 X36.25 Y19.50 F1200
G1 Z5.00 F1200
G0 X37.25 Y19.50
G1 Z0.00 F1200
G1 X37.75 Y19.50 F1200
G1 Z5.00 F1200
G0 X38.75 Y19.50
G1 Z0.00 F1200
G1 X41.00 Y19.50 F1200
G1 Z5.00 F1200
G0 X43.75 Y19.50
G1 Z0.00 F1200
G1 X49.00 Y19.50 F1200
G1 Z5.00 F1200
G0 X49.25 Y19.50
G1 Z0.00 F1200
G1 X52.00 Y19.50 F1200
G1 Z5.00 F1200
G0 X52.75 Y19.50
G1 Z0.00 F1200
G1 X56.75 Y19.50 F1200
G1 Z5.00 F1200
G0 X43.25 Y19.75
G1 Z0.00 F1200
G1 X47.25 Y19.75 F1200
G1 Z5.00 F1200
G0 X47.75 Y19.75
G1 Z0.00 F1200
G1 X50.50 Y19.75 F1200
G1 Z5.00 F1200
G0 X50.75 Y19.75
G1 Z0.00 F1200
G1 X57.25 Y19.75 F1200
G1 Z5.00 F1200
G0 X59.50 Y19.75
G1 Z0.00 F1200
G1 X61.50 Y19.75 F1200
G1 Z5.00 F1200
G0 X62.50 Y19.75
G1 Z0.00 F1200
G1 X63.00 Y19.75 F1200
G1 Z5.00 F1200
G0 X63.75 Y19.75
G1 Z0.00 F1200
G1 X65.00 Y19.75 F1200
G1 Z5.00 F1200
G0 X66.00 Y19.75
G1 Z0.00 F1200
G1 X66.50 Y19.75 F1200
G1 Z5.00 F1200
G0 X67.00 Y19.75
G1 Z0.00 F1200
G1 X68.00 Y19.75 F1200
G1 Z5.00 F1200
G0 X68.50 Y19.75
G1 Z0.00 F1200
G1 X69.00 Y19.75 F1200
G1 Z5.00 F1200
G0 X69.75 Y19.75
G1 Z0.00 F1200
G1 X70.50 Y19.75 F1200
G1 Z5.00 F1200
G0 X70.75 Y19.75
G1 Z0.00 F1200
G1 X71.25 Y19.75 F1200
G1 Z5.00 F1200
G0 X71.50 Y19.75
G1 Z0.00 F1200
G1 X71.75 Y19.75 F1200
G1 Z5.00 F1200
G0 X72.00 Y19.75
G1 Z0.00 F1200
G1 X72.75 Y19.75 F1200
G1 Z5.00 F1200
G0 X27.25 Y20.00
G1 Z0.00 F1200
G1 X27.75 Y20.00 F1200
G1 Z5.00 F1200
G0 X28.25 Y20.00
G1 Z0.00 F1200
G1 X28.50 Y20.00 F1200
G1 Z5.00 F1200
G0 X28.75 Y20.00
G1 Z0.00 F1200
G1 X29.00 Y20.00 F1200
G1 Z5.00 F1200
G0 X29.50 Y20.00
G1 Z0.00 F1200
G1 X30.25 Y20.00 F1200
G1 Z5.00 F1200
G0 X30.75 Y20.00
G1 Z0.00 F1200
G1 X31.50 Y20.00 F1200
G1 Z5.00 F1200
G0 X32.00 Y20.00
G1 Z0.00 F1200
G1 X33.00 Y20.00 F1200
G1 Z5.00 F1200
G0 X33.25 Y20.00
G1 Z0.00 F1200
G1 X34.00 Y20.00 F1200
G1 Z5.00 F1200
G0 X34.75 Y20.00
G1 Z0.00 F1200
G1 X36.00 Y20.00 F1200
G1 Z5.00 F1200
G0 X37.00 Y20.00
G1 Z0.00 F1200
G1 X37.25 Y20.00 F1200
G1 Z5.00 F1200
G0 X38.00 Y20.00
G1 Z0.00 F1200
G1 X40.25 Y20.00 F1200
G1 Z5.00 F1200
G0 X42.00 Y20.00
G1 Z0.00 F1200
G1 X52.25 Y20.00 F1200
G1 Z5.00 F1200
G0 X53.00 Y20.00
G1 Z0.00 F1200
G1 X57.00 Y20.00 F1200
G1 Z5.00 F1200
G0 X43.00 Y20.25
G1 Z0.00 F1200
G1 X47.00 Y20.25 F1200
G1 Z5.00 F1200
G0 X47.50 Y20.25
G1 Z0.00 F1200
G1 X58.50 Y20.25 F1200
G1 Z5.00 F1200
G0 X60.00 Y20.25
G1 Z0.00 F1200
G1 X62.25 Y20.25 F1200
G1 Z5.00 F1200
G0 X64.25 Y20.25
G1 Z0.00 F1200
G1 X65.50 Y20.25 F1200
G1 Z5.00 F1200
G0 X66.25 Y20.25
G1 Z0.00 F1200
G1 X68.00 Y20.25 F1200
G1 Z5.00 F1200
G0 X68.50 Y20.25
G1 Z0.00 F1200
G1 X69.25 Y20.25 F1200
G1 Z5.00 F1200
G0 X69.75 Y20.25
G1 Z0.00 F1200
G1 X70.75 Y20.25 F1200
G1 Z5.00 F1200
G0 X71.00 Y20.25
G1 Z0.00 F1200
G1 X71.25 Y20.25 F1200
G1 Z5.00 F1200
G0 X71.50 Y20.25
G1 Z0.00 F1200
G1 X71.75 Y20.25 F1200
G1 Z5.00 F1200
G0 X72.25 Y20.25
G1 Z0.00 F1200
G1 X72.75 Y20.25 F1200
G1 Z5.00 F1200
G0 X27.25 Y20.50
G1 Z0.00 F1200
G1 X27.75 Y20.50 F1200
G1 Z5.00 F1200
G0 X28.00 Y20.50
G1 Z0.00 F1200
G1 X28.50 Y20.50 F1200
G1 Z5.00 F1200
G0 X28.75 Y20.50
G1 Z0.00 F1200
G1 X29.00 Y20.50 F1200
G1 Z5.00 F1200
G0 X29.25 Y20.50
G1 Z0.00 F1200
G1 X30.25 Y20.50 F1200
G1 Z5.00 F1200
G0 X30.75 Y20.50
G1 Z0.00 F1200
G1 X31.25 Y20.50 F1200
G1 Z5.00 F1200
G0 X31.75 Y20.50
G1 Z0.00 F1200
G1 X33.75 Y20.50 F1200
G1 Z5.00 F1200
G0 X34.25 Y20.50
G1 Z0.00 F1200
G1 X35.50 Y20.50 F1200
G1 Z5.00 F1200
G0 X37.50 Y20.50
G1 Z0.00 F1200
G1 X39.50 Y20.50 F1200
G1 Z5.00 F1200
G0 X41.00 Y20.50
G1 Z0.00 F1200
G1 X52.50 Y20.50 F1200
G1 Z5.00 F1200
G0 X53.00 Y20.50
G1 Z0.00 F1200
G1 X57.25 Y20.50 F1200
G1 Z5.00 F1200
G0 X42.50 Y20.75
G1 Z0.00 F1200
G1 X46.75 Y20.75 F1200
G1 Z5.00 F1200
G0 X47.25 Y20.75
G1 Z0.00 F1200
G1 X59.50 Y20.75 F1200
G1 Z5.00 F1200
G0 X60.75 Y20.75
G1 Z0.00 F1200
G1 X62.75 Y20.75 F1200
G1 Z5.00 F1200
G0 X64.50 Y20.75
G1 Z0.00 F1200
G1 X66.00 Y20.75 F1200
G1 Z5.00 F1200
G0 X66.50 Y20.75
G1 Z0.00 F1200
G1 X68.25 Y20.75 F1200
G1 Z5.00 F1200
G0 X68.75 Y20.75
G1 Z0.00 F1200
G1 X69.25 Y20.75 F1200
G1 Z5.00 F1200
G0 X69.75 Y20.75
G1 Z0.00 F1200
G1 X70.75 Y20.75 F1200
G1 Z5.00 F1200
G0 X71.00 Y20.75
G1 Z0.00 F1200
G1 X71.25 Y20.75 F1200
G1 Z5.00 F1200
G0 X71.50 Y20.75
G1 Z0.00 F1200
G1 X72.00 Y20.75 F1200
G1 Z5.00 F1200
G0 X72.25 Y20.75
G1 Z0.00 F1200
G1 X72.75 Y20.75 F1200
G1 Z5.00 F1200
G0 X27.25 Y21.00
G1 Z0.00 F1200
G1 X27.75 Y21.00 F1200
G1 Z5.00 F1200
G0 X28.00 Y21.00
G1 Z0.00 F1200
G1 X28.25 Y21.00 F1200
G1 Z5.00 F1200
G0 X28.75 Y21.00
G1 Z0.00 F1200
G1 X29.00 Y21.00 F1200
G1 Z5.00 F1200
G0 X29.25 Y21.00
G1 Z0.00 F1200
G1 X30.25 Y21.00 F1200
G1 Z5.00 F1200
G0 X30.75 Y21.00
G1 Z0.00 F1200
G1 X31.25 Y21.00 F1200
G1 Z5.00 F1200
G0 X31.75 Y21.00
G1 Z0.00 F1200
G1 X33.50 Y21.00 F1200
G1 Z5.00 F1200
G0 X33.75 Y21.00
G1 Z0.00 F1200
G1 X35.25 Y21.00 F1200
G1 Z5.00 F1200
G0 X37.00 Y21.00
G1 Z0.00 F1200
G1 X39.00 Y21.00 F1200
G1 Z5.00 F1200
G0 X40.00 Y21.00
G1 Z0.00 F1200
G1 X52.75 Y21.00 F1200
G1 Z5.00 F1200
G0 X53.25 Y21.00
G1 Z0.00 F1200
G1 X57.50 Y21.00 F1200
G1 Z5.00 F1200
G0 X42.25 Y21.25
G1 Z0.00 F1200
G1 X46.75 Y21.25 F1200
G1 Z5.00 F1200
G0 X47.00 Y21.25
G1 Z0.00 F1200
G1 X60.25 Y21.25 F1200
G1 Z5.00 F1200
G0 X61.25 Y21.25
G1 Z0.00 F1200
G1 X63.50 Y21.25 F1200
G1 Z5.00 F1200
G0 X65.00 Y21.25
G1 Z0.00 F1200
G1 X66.25 Y21.25 F1200
G1 Z5.00 F1200
G0 X66.75 Y21.25
G1 Z0.00 F1200
G1 X68.50 Y21.25 F1200
G1 Z5.00 F1200
G0 X68.75 Y21.25
G1 Z0.00 F1200
G1 X69.50 Y21.25 F1200
G1 Z5.00 F1200
G0 X69.75 Y21.25
G1 Z0.00 F1200
G1 X70.75 Y21.25 F1200
G1 Z5.00 F1200
G0 X71.00 Y21.25
G1 Z0.00 F1200
G1 X71.25 Y21.25 F1200
G1 Z5.00 F1200
G0 X71.75 Y21.25
G1 Z0.00 F1200
G1 X72.00 Y21.25 F1200
G1 Z5.00 F1200
G0 X72.25 Y21.25
G1 Z0.00 F1200
G1 X73.00 Y21.25 F1200
G1 Z5.00 F1200
G0 X27.00 Y21.50
G1 Z0.00 F1200
G1 X27.75 Y21.50 F1200
G1 Z5.00 F1200
G0 X28.00 Y21.50
G1 Z0.00 F1200
G1 X28.25 Y21.50 F1200
G1 Z5.00 F1200
G0 X28.75 Y21.50
G1 Z0.00 F1200
G1 X29.00 Y21.50 F1200
G1 Z5.00 F1200
G0 X29.25 Y21.50
G1 Z0.00 F1200
G1 X30.25 Y21.50 F1200
G1 Z5.00 F1200
G0 X30.50 Y21.50
G1 Z0.00 F1200
G1 X31.25 Y21.50 F1200
G1 Z5.00 F1200
G0 X31.50 Y21.50
G1 Z0.00 F1200
G1 X33.25 Y21.50 F1200
G1 Z5.00 F1200
G0 X33.50 Y21.50
G1 Z0.00 F1200
G1 X35.00 Y21.50 F1200
G1 Z5.00 F1200
G0 X36.25 Y21.50
G1 Z0.00 F1200
G1 X38.50 Y21.50 F1200
G1 Z5.00 F1200
G0 X39.25 Y21.50
G1 Z0.00 F1200
G1 X53.00 Y21.50 F1200
G1 Z5.00 F1200
G0 X53.50 Y21.50
G1 Z0.00 F1200
G1 X58.00 Y21.50 F1200
G1 Z5.00 F1200
G0 X42.00 Y21.75
G1 Z0.00 F1200
G1 X46.50 Y21.75 F1200
G1 Z5.00 F1200
G0 X46.75 Y21.75
G1 Z0.00 F1200
G1 X61.00 Y21.75 F1200
G1 Z5.00 F1200
G0 X61.75 Y21.75
G1 Z0.00 F1200
G1 X64.25 Y21.75 F1200
G1 Z5.00 F1200
G0 X65.25 Y21.75
G1 Z0.00 F1200
G1 X66.75 Y21.75 F1200
G1 Z5.00 F1200
G0 X67.00 Y21.75
G1 Z0.00 F1200
G1 X68.50 Y21.75 F1200
G1 Z5.00 F1200
G0 X68.75 Y21.75
G1 Z0.00 F1200
G1 X69.50 Y21.75 F1200
G1 Z5.00 F1200
G0 X69.75 Y21.75
G1 Z0.00 F1200
G1 X70.75 Y21.75 F1200
G1 Z5.00 F1200
G0 X71.00 Y21.75
G1 Z0.00 F1200
G1 X71.25 Y21.75 F1200
G1 Z5.00 F1200
G0 X71.75 Y21.75
G1 Z0.00 F1200
G1 X72.00 Y21.75 F1200
G1 Z5.00 F1200
G0 X72.25 Y21.75
G1 Z0.00 F1200
G1 X73.25 Y21.75 F1200
G1 Z5.00 F1200
G0 X26.75 Y22.00
G1 Z0.00 F1200
G1 X27.75 Y22.00 F1200
G1 Z5.00 F1200
G0 X28.00 Y22.00
G1 Z0.00 F1200
G1 X28.25 Y22.00 F1200
G1 Z5.00 F1200
G0 X28.75 Y22.00
G1 Z0.00 F1200
G1 X29.00 Y22.00 F1200
G1 Z5.00 F1200
G0 X29.25 Y22.00
G1 Z0.00 F1200
G1 X30.25 Y22.00 F1200
G1 Z5.00 F1200
G0 X30.50 Y22.00
G1 Z0.00 F1200
G1 X31.00 Y22.00 F1200
G1 Z5.00 F1200
G0 X31.50 Y22.00
G1 Z0.00 F1200
G1 X33.00 Y22.00 F1200
G1 Z5.00 F1200
G0 X33.25 Y22.00
G1 Z0.00 F1200
G1 X34.50 Y22.00 F1200
G1 Z5.00 F1200
G0 X35.25 Y22.00
G1 Z0.00 F1200
G1 X38.00 Y22.00 F1200
G1 Z5.00 F1200
G0 X38.50 Y22.00
G1 Z0.00 F1200
G1 X42.00 Y22.00 F1200
G1 Z5.00 F1200
G0 X44.25 Y22.00
G1 Z0.00 F1200
G1 X53.25 Y22.00 F1200
G1 Z5.00 F1200
G0 X53.50 Y22.00
G1 Z0.00 F1200
G1 X58.25 Y22.00 F1200
G1 Z5.00 F1200
G0 X41.50 Y22.25
G1 Z0.00 F1200
G1 X46.25 Y22.25 F1200
G1 Z5.00 F1200
G0 X46.50 Y22.25
G1 Z0.00 F1200
G1 X55.25 Y22.25 F1200
G1 Z5.00 F1200
G0 X56.75 Y22.25
G1 Z0.00 F1200
G1 X61.75 Y22.25 F1200
G1 Z5.00 F1200
G0 X62.25 Y22.25
G1 Z0.00 F1200
G1 X65.25 Y22.25 F1200
G1 Z5.00 F1200
G0 X65.75 Y22.25
G1 Z0.00 F1200
G1 X67.00 Y22.25 F1200
G1 Z5.00 F1200
G0 X67.25 Y22.25
G1 Z0.00 F1200
G1 X68.75 Y22.25 F1200
G1 Z5.00 F1200
G0 X69.00 Y22.25
G1 Z0.00 F1200
G1 X69.50 Y22.25 F1200
G1 Z5.00 F1200
G0 X69.75 Y22.25
G1 Z0.00 F1200
G1 X70.75 Y22.25 F1200
G1 Z5.00 F1200
G0 X71.00 Y22.25
G1 Z0.00 F1200
G1 X71.25 Y22.25 F1200
G1 Z5.00 F1200
G0 X71.75 Y22.25
G1 Z0.00 F1200
G1 X72.00 Y22.25 F1200
G1 Z5.00 F1200
G0 X72.25 Y22.25
G1 Z0.00 F1200
G1 X73.50 Y22.25 F1200
G1 Z5.00 F1200
G0 X26.50 Y22.50
G1 Z0.00 F1200
G1 X27.75 Y22.50 F1200
G1 Z5.00 F1200
G0 X28.00 Y22.50
G1 Z0.00 F1200
G1 X28.50 Y22.50 F1200
G1 Z5.00 F1200
G0 X28.75 Y22.50
G1 Z0.00 F1200
G1 X30.25 Y22.50 F1200
G1 Z5.00 F1200
G0 X30.50 Y22.50
G1 Z0.00 F1200
G1 X31.00 Y22.50 F1200
G1 Z5.00 F1200
G0 X31.25 Y22.50
G1 Z0.00 F1200
G1 X37.50 Y22.50 F1200
G1 Z5.00 F1200
G0 X37.75 Y22.50
G1 Z0.00 F1200
G1 X44.00 Y22.50 F1200
G1 Z5.00 F1200
G0 X45.25 Y22.50
G1 Z0.00 F1200
G1 X58.75 Y22.50 F1200
G1 Z5.00 F1200
G0 X41.00 Y22.75
G1 Z0.00 F1200
G1 X54.50 Y22.75 F1200
G1 Z5.00 F1200
G0 X55.50 Y22.75
G1 Z0.00 F1200
G1 X68.75 Y22.75 F1200
G1 Z5.00 F1200
G0 X69.00 Y22.75
G1 Z0.00 F1200
G1 X69.50 Y22.75 F1200
G1 Z5.00 F1200
G0 X69.75 Y22.75
G1 Z0.00 F1200
G1 X71.25 Y22.75 F1200
G1 Z5.00 F1200
G0 X71.50 Y22.75
G1 Z0.00 F1200
G1 X72.00 Y22.75 F1200
G1 Z5.00 F1200
G0 X72.25 Y22.75
G1 Z0.00 F1200
G1 X73.50 Y22.75 F1200
G1 Z5.00 F1200
G0 X26.50 Y23.00
G1 Z0.00 F1200
G1 X27.75 Y23.00 F1200
G1 Z5.00 F1200
G0 X28.25 Y23.00
G1 Z0.00 F1200
G1 X28.50 Y23.00 F1200
G1 Z5.00 F1200
G0 X28.75 Y23.00
G1 Z0.00 F1200
G1 X30.25 Y23.00 F1200
G1 Z5.00 F1200
G0 X30.50 Y23.00
G1 Z0.00 F1200
G1 X38.75 Y23.00 F1200
G1 Z5.00 F1200
G0 X39.00 Y23.00
G1 Z0.00 F1200
G1 X45.00 Y23.00 F1200
G1 Z5.00 F1200
G0 X45.75 Y23.00
G1 Z0.00 F1200
G1 X58.00 Y23.00 F1200
G1 Z5.00 F1200
G0 X58.25 Y23.00
G1 Z0.00 F1200
G1 X59.25 Y23.00 F1200
G1 Z5.00 F1200
G0 X40.50 Y23.25
G1 Z0.00 F1200
G1 X41.50 Y23.25 F1200
G1 Z5.00 F1200
G0 X42.00 Y23.25
G1 Z0.00 F1200
G1 X54.00 Y23.25 F1200
G1 Z5.00 F1200
G0 X54.75 Y23.25
G1 Z0.00 F1200
G1 X60.75 Y23.25 F1200
G1 Z5.00 F1200
G0 X61.75 Y23.25
G1 Z0.00 F1200
G1 X69.50 Y23.25 F1200
G1 Z5.00 F1200
G0 X69.75 Y23.25
G1 Z0.00 F1200
G1 X71.75 Y23.25 F1200
G1 Z5.00 F1200
G0 X72.00 Y23.25
G1 Z0.00 F1200
G1 X73.75 Y23.25 F1200
G1 Z5.00 F1200
G0 X26.25 Y23.50
G1 Z0.00 F1200
G1 X27.00 Y23.50 F1200
G1 Z5.00 F1200
G0 X27.25 Y23.50
G1 Z0.00 F1200
G1 X28.00 Y23.50 F1200
G1 Z5.00 F1200
G0 X28.25 Y23.50
G1 Z0.00 F1200
G1 X34.00 Y23.50 F1200
G1 Z5.00 F1200
G0 X34.25 Y23.50
G1 Z0.00 F1200
G1 X37.75 Y23.50 F1200
G1 Z5.00 F1200
G0 X39.75 Y23.50
G1 Z0.00 F1200
G1 X45.50 Y23.50 F1200
G1 Z5.00 F1200
G0 X46.25 Y23.50
G1 Z0.00 F1200
G1 X58.25 Y23.50 F1200
G1 Z5.00 F1200
G0 X59.00 Y23.50
G1 Z0.00 F1200
G1 X59.75 Y23.50 F1200
G1 Z5.00 F1200
G0 X40.00 Y23.75
G1 Z0.00 F1200
G1 X40.75 Y23.75 F1200
G1 Z5.00 F1200
G0 X41.75 Y23.75
G1 Z0.00 F1200
G1 X53.75 Y23.75 F1200
G1 Z5.00 F1200
G0 X54.25 Y23.75
G1 Z0.00 F1200
G1 X60.00 Y23.75 F1200
G1 Z5.00 F1200
G0 X62.75 Y23.75
G1 Z0.00 F1200
G1 X65.75 Y23.75 F1200
G1 Z5.00 F1200
G0 X66.50 Y23.75
G1 Z0.00 F1200
G1 X70.25 Y23.75 F1200
G1 Z5.00 F1200
G0 X70.75 Y23.75
G1 Z0.00 F1200
G1 X71.75 Y23.75 F1200
G1 Z5.00 F1200
G0 X72.00 Y23.75
G1 Z0.00 F1200
G1 X72.75 Y23.75 F1200
G1 Z5.00 F1200
G0 X73.00 Y23.75
G1 Z0.00 F1200
G1 X73.75 Y23.75 F1200
G1 Z5.00 F1200
G0 X26.25 Y24.00
G1 Z0.00 F1200
G1 X27.00 Y24.00 F1200
G1 Z5.00 F1200
G0 X27.50 Y24.00
G1 Z0.00 F1200
G1 X29.25 Y24.00 F1200
G1 Z5.00 F1200
G0 X29.75 Y24.00
G1 Z0.00 F1200
G1 X33.25 Y24.00 F1200
G1 Z5.00 F1200
G0 X34.00 Y24.00
G1 Z0.00 F1200
G1 X36.75 Y24.00 F1200
G1 Z5.00 F1200
G0 X40.50 Y24.00
G1 Z0.00 F1200
G1 X45.75 Y24.00 F1200
G1 Z5.00 F1200
G0 X46.50 Y24.00
G1 Z0.00 F1200
G1 X58.50 Y24.00 F1200
G1 Z5.00 F1200
G0 X59.75 Y24.00
G1 Z0.00 F1200
G1 X60.25 Y24.00 F1200
G1 Z5.00 F1200
G0 X39.75 Y24.25
G1 Z0.00 F1200
G1 X40.00 Y24.25 F1200
G1 Z5.00 F1200
G0 X41.50 Y24.25
G1 Z0.00 F1200
G1 X53.50 Y24.25 F1200
G1 Z5.00 F1200
G0 X54.00 Y24.25
G1 Z0.00 F1200
G1 X59.25 Y24.25 F1200
G1 Z5.00 F1200
G0 X64.00 Y24.25
G1 Z0.00 F1200
G1 X65.50 Y24.25 F1200
G1 Z5.00 F1200
G0 X67.00 Y24.25
G1 Z0.00 F1200
G1 X67.25 Y24.25 F1200
G1 Z5.00 F1200
G0 X67.50 Y24.25
G1 Z0.00 F1200
G1 X70.00 Y24.25 F1200
G1 Z5.00 F1200
G0 X70.75 Y24.25
G1 Z0.00 F1200
G1 X72.50 Y24.25 F1200
G1 Z5.00 F1200
G0 X73.00 Y24.25
G1 Z0.00 F1200
G1 X73.75 Y24.25 F1200
G1 Z5.00 F1200
G0 X26.25 Y24.50
G1 Z0.00 F1200
G1 X27.25 Y24.50 F1200
G1 Z5.00 F1200
G0 X27.50 Y24.50
G1 Z0.00 F1200
G1 X29.00 Y24.50 F1200
G1 Z5.00 F1200
G0 X30.00 Y24.50
G1 Z0.00 F1200
G1 X32.25 Y24.50 F1200
G1 Z5.00 F1200
G0 X41.00 Y24.50
G1 Z0.00 F1200
G1 X46.25 Y24.50 F1200
G1 Z5.00 F1200
G0 X46.75 Y24.50
G1 Z0.00 F1200
G1 X58.50 Y24.50 F1200
G1 Z5.00 F1200
G0 X60.25 Y24.50
G1 Z0.00 F1200
G1 X60.50 Y24.50 F1200
G1 Z5.00 F1200
G0 X41.25 Y24.75
G1 Z0.00 F1200
G1 X51.25 Y24.75 F1200
G1 Z5.00 F1200
G0 X51.50 Y24.75
G1 Z0.00 F1200
G1 X53.25 Y24.75 F1200
G1 Z5.00 F1200
G0 X53.75 Y24.75
G1 Z0.00 F1200
G1 X59.00 Y24.75 F1200
G1 Z5.00 F1200
G0 X68.00 Y24.75
G1 Z0.00 F1200
G1 X69.75 Y24.75 F1200
G1 Z5.00 F1200
G0 X71.00 Y24.75
G1 Z0.00 F1200
G1 X72.50 Y24.75 F1200
G1 Z5.00 F1200
G0 X72.75 Y24.75
G1 Z0.00 F1200
G1 X73.75 Y24.75 F1200
G1 Z5.00 F1200
G0 X26.25 Y25.00
G1 Z0.00 F1200
G1 X27.25 Y25.00 F1200
G1 Z5.00 F1200
G0 X27.50 Y25.00
G1 Z0.00 F1200
G1 X28.75 Y25.00 F1200
G1 Z5.00 F1200
G0 X30.50 Y25.00
G1 Z0.00 F1200
G1 X31.50 Y25.00 F1200
G1 Z5.00 F1200
G0 X41.00 Y25.00
G1 Z0.00 F1200
G1 X46.50 Y25.00 F1200
G1 Z5.00 F1200
G0 X47.00 Y25.00
G1 Z0.00 F1200
G1 X48.50 Y25.00 F1200
G1 Z5.00 F1200
G0 X49.00 Y25.00
G1 Z0.00 F1200
G1 X58.75 Y25.00 F1200
G1 Z5.00 F1200
G0 X41.00 Y25.25
G1 Z0.00 F1200
G1 X51.00 Y25.25 F1200
G1 Z5.00 F1200
G0 X51.25 Y25.25
G1 Z0.00 F1200
G1 X53.00 Y25.25 F1200
G1 Z5.00 F1200
G0 X53.50 Y25.25
G1 Z0.00 F1200
G1 X58.75 Y25.25 F1200
G1 Z5.00 F1200
G0 X68.75 Y25.25
G1 Z0.00 F1200
G1 X69.00 Y25.25 F1200
G1 Z5.00 F1200
G0 X71.25 Y25.25
G1 Z0.00 F1200
G1 X72.25 Y25.25 F1200
G1 Z5.00 F1200
G0 X72.75 Y25.25
G1 Z0.00 F1200
G1 X73.50 Y25.25 F1200
G1 Z5.00 F1200
G0 X26.50 Y25.50
G1 Z0.00 F1200
G1 X27.50 Y25.50 F1200
G1 Z5.00 F1200
G0 X27.75 Y25.50
G1 Z0.00 F1200
G1 X28.50 Y25.50 F1200
G1 Z5.00 F1200
G0 X41.25 Y25.50
G1 Z0.00 F1200
G1 X46.75 Y25.50 F1200
G1 Z5.00 F1200
G0 X47.00 Y25.50
G1 Z0.00 F1200
G1 X48.75 Y25.50 F1200
G1 Z5.00 F1200
G0 X49.25 Y25.50
G1 Z0.00 F1200
G1 X59.00 Y25.50 F1200
G1 Z5.00 F1200
G0 X40.75 Y25.75
G1 Z0.00 F1200
G1 X50.75 Y25.75 F1200
G1 Z5.00 F1200
G0 X51.25 Y25.75
G1 Z0.00 F1200
G1 X52.75 Y25.75 F1200
G1 Z5.00 F1200
G0 X53.25 Y25.75
G1 Z0.00 F1200
G1 X58.75 Y25.75 F1200
G1 Z5.00 F1200
G0 X71.50 Y25.75
G1 Z0.00 F1200
G1 X72.25 Y25.75 F1200
G1 Z5.00 F1200
G0 X72.50 Y25.75
G1 Z0.00 F1200
G1 X73.50 Y25.75 F1200
G1 Z5.00 F1200
G0 X26.50 Y26.00
G1 Z0.00 F1200
G1 X27.50 Y26.00 F1200
G1 Z5.00 F1200
G0 X28.00 Y26.00
G1 Z0.00 F1200
G1 X28.50 Y26.00 F1200
G1 Z5.00 F1200
G0 X41.25 Y26.00
G1 Z0.00 F1200
G1 X45.00 Y26.00 F1200
G1 Z5.00 F1200
G0 X45.25 Y26.00
G1 Z0.00 F1200
G1 X47.00 Y26.00 F1200
G1 Z5.00 F1200
G0 X47.25 Y26.00
G1 Z0.00 F1200
G1 X49.00 Y26.00 F1200
G1 Z5.00 F1200
G0 X49.50 Y26.00
G1 Z0.00 F1200
G1 X59.25 Y26.00 F1200
G1 Z5.00 F1200
G0 X40.50 Y26.25
G1 Z0.00 F1200
G1 X50.50 Y26.25 F1200
G1 Z5.00 F1200
G0 X51.00 Y26.25
G1 Z0.00 F1200
G1 X52.50 Y26.25 F1200
G1 Z5.00 F1200
G0 X53.00 Y26.25
G1 Z0.00 F1200
G1 X54.75 Y26.25 F1200
G1 Z5.00 F1200
G0 X55.00 Y26.25
G1 Z0.00 F1200
G1 X58.75 Y26.25 F1200
G1 Z5.00 F1200
G0 X71.75 Y26.25
G1 Z0.00 F1200
G1 X73.25 Y26.25 F1200
G1 Z5.00 F1200
G0 X26.75 Y26.50
G1 Z0.00 F1200
G1 X28.25 Y26.50 F1200
G1 Z5.00 F1200
G0 X41.25 Y26.50
G1 Z0.00 F1200
G1 X45.00 Y26.50 F1200
G1 Z5.00 F1200
G0 X45.50 Y26.50
G1 Z0.00 F1200
G1 X47.25 Y26.50 F1200
G1 Z5.00 F1200
G0 X47.50 Y26.50
G1 Z0.00 F1200
G1 X49.25 Y26.50 F1200
G1 Z5.00 F1200
G0 X49.75 Y26.50
G1 Z0.00 F1200
G1 X51.50 Y26.50 F1200
G1 Z5.00 F1200
G0 X51.75 Y26.50
G1 Z0.00 F1200
G1 X59.50 Y26.50 F1200
G1 Z5.00 F1200
G0 X40.50 Y26.75
G1 Z0.00 F1200
G1 X48.00 Y26.75 F1200
G1 Z5.00 F1200
G0 X48.25 Y26.75
G1 Z0.00 F1200
G1 X50.00 Y26.75 F1200
G1 Z5.00 F1200
G0 X50.75 Y26.75
G1 Z0.00 F1200
G1 X52.25 Y26.75 F1200
G1 Z5.00 F1200
G0 X52.75 Y26.75
G1 Z0.00 F1200
G1 X54.50 Y26.75 F1200
G1 Z5.00 F1200
G0 X55.00 Y26.75
G1 Z0.00 F1200
G1 X58.75 Y26.75 F1200
G1 Z5.00 F1200
G0 X71.75 Y26.75
G1 Z0.00 F1200
G1 X73.25 Y26.75 F1200
G1 Z5.00 F1200
G0 X27.00 Y27.00
G1 Z0.00 F1200
G1 X28.00 Y27.00 F1200
G1 Z5.00 F1200
G0 X41.25 Y27.00
G1 Z0.00 F1200
G1 X45.00 Y27.00 F1200
G1 Z5.00 F1200
G0 X45.75 Y27.00
G1 Z0.00 F1200
G1 X47.50 Y27.00 F1200
G1 Z5.00 F1200
G0 X47.75 Y27.00
G1 Z0.00 F1200
G1 X49.25 Y27.00 F1200
G1 Z5.00 F1200
G0 X50.00 Y27.00
G1 Z0.00 F1200
G1 X51.75 Y27.00 F1200
G1 Z5.00 F1200
G0 X52.00 Y27.00
G1 Z0.00 F1200
G1 X59.75 Y27.00 F1200
G1 Z5.00 F1200
G0 X40.25 Y27.25
G1 Z0.00 F1200
G1 X47.75 Y27.25 F1200
G1 Z5.00 F1200
G0 X48.00 Y27.25
G1 Z0.00 F1200
G1 X49.75 Y27.25 F1200
G1 Z5.00 F1200
G0 X50.50 Y27.25
G1 Z0.00 F1200
G1 X52.00 Y27.25 F1200
G1 Z5.00 F1200
G0 X52.50 Y27.25
G1 Z0.00 F1200
G1 X54.25 Y27.25 F1200
G1 Z5.00 F1200
G0 X55.00 Y27.25
G1 Z0.00 F1200
G1 X58.75 Y27.25 F1200
G1 Z5.00 F1200
G0 X72.00 Y27.25
G1 Z0.00 F1200
G1 X73.00 Y27.25 F1200
G1 Z5.00 F1200
G0 X27.25 Y27.50
G1 Z0.00 F1200
G1 X28.00 Y27.50 F1200
G1 Z5.00 F1200
G0 X41.25 Y27.50
G1 Z0.00 F1200
G1 X45.00 Y27.50 F1200
G1 Z5.00 F1200
G0 X46.00 Y27.50
G1 Z0.00 F1200
G1 X47.75 Y27.50 F1200
G1 Z5.00 F1200
G0 X48.00 Y27.50
G1 Z0.00 F1200
G1 X49.50 Y27.50 F1200
G1 Z5.00 F1200
G0 X50.50 Y27.50
G1 Z0.00 F1200
G1 X52.00 Y27.50 F1200
G1 Z5.00 F1200
G0 X52.50 Y27.50
G1 Z0.00 F1200
G1 X60.00 Y27.50 F1200
G1 Z5.00 F1200
G0 X40.00 Y27.75
G1 Z0.00 F1200
G1 X47.25 Y27.75 F1200
G1 Z5.00 F1200
G0 X47.75 Y27.75
G1 Z0.00 F1200
G1 X49.50 Y27.75 F1200
G1 Z5.00 F1200
G0 X50.25 Y27.75
G1 Z0.00 F1200
G1 X51.75 Y27.75 F1200
G1 Z5.00 F1200
G0 X52.00 Y27.75
G1 Z0.00 F1200
G1 X53.75 Y27.75 F1200
G1 Z5.00 F1200
G0 X55.00 Y27.75
G1 Z0.00 F1200
G1 X58.75 Y27.75 F1200
G1 Z5.00 F1200
G0 X72.25 Y27.75
G1 Z0.00 F1200
G1 X72.75 Y27.75 F1200
G1 Z5.00 F1200
G0 X27.25 Y28.00
G1 Z0.00 F1200
G1 X27.75 Y28.00 F1200
G1 Z5.00 F1200
G0 X41.00 Y28.00
G1 Z0.00 F1200
G1 X45.00 Y28.00 F1200
G1 Z5.00 F1200
G0 X46.25 Y28.00
G1 Z0.00 F1200
G1 X49.75 Y28.00 F1200
G1 Z5.00 F1200
G0 X50.75 Y28.00
G1 Z0.00 F1200
G1 X52.50 Y28.00 F1200
G1 Z5.00 F1200
G0 X53.00 Y28.00
G1 Z0.00 F1200
G1 X60.25 Y28.00 F1200
G1 Z5.00 F1200
G0 X39.75 Y28.25
G1 Z0.00 F1200
G1 X46.75 Y28.25 F1200
G1 Z5.00 F1200
G0 X47.50 Y28.25
G1 Z0.00 F1200
G1 X49.00 Y28.25 F1200
G1 Z5.00 F1200
G0 X50.00 Y28.25
G1 Z0.00 F1200
G1 X53.50 Y28.25 F1200
G1 Z5.00 F1200
G0 X55.00 Y28.25
G1 Z0.00 F1200
G1 X59.00 Y28.25 F1200
G1 Z5.00 F1200
G0 X72.25 Y28.25
G1 Z0.00 F1200
G1 X72.75 Y28.25 F1200
G1 Z5.00 F1200
G0 X27.25 Y28.50
G1 Z0.00 F1200
G1 X27.75 Y28.50 F1200
G1 Z5.00 F1200
G0 X41.00 Y28.50
G1 Z0.00 F1200
G1 X44.75 Y28.50 F1200
G1 Z5.00 F1200
G0 X45.25 Y28.50
G1 Z0.00 F1200
G1 X45.50 Y28.50 F1200
G1 Z5.00 F1200
G0 X46.75 Y28.50
G1 Z0.00 F1200
G1 X50.00 Y28.50 F1200
G1 Z5.00 F1200
G0 X51.25 Y28.50
G1 Z0.00 F1200
G1 X52.75 Y28.50 F1200
G1 Z5.00 F1200
G0 X53.50 Y28.50
G1 Z0.00 F1200
G1 X60.50 Y28.50 F1200
G1 Z5.00 F1200
G0 X39.50 Y28.75
G1 Z0.00 F1200
G1 X46.25 Y28.75 F1200
G1 Z5.00 F1200
G0 X47.00 Y28.75
G1 Z0.00 F1200
G1 X48.50 Y28.75 F1200
G1 Z5.00 F1200
G0 X49.75 Y28.75
G1 Z0.00 F1200
G1 X53.00 Y28.75 F1200
G1 Z5.00 F1200
G0 X54.25 Y28.75
G1 Z0.00 F1200
G1 X54.75 Y28.75 F1200
G1 Z5.00 F1200
G0 X55.25 Y28.75
G1 Z0.00 F1200
G1 X59.00 Y28.75 F1200
G1 Z5.00 F1200
G0 X72.25 Y28.75
G1 Z0.00 F1200
G1 X72.75 Y28.75 F1200
G1 Z5.00 F1200
G0 X27.25 Y29.00
G1 Z0.00 F1200
G1 X27.50 Y29.00 F1200
G1 Z5.00 F1200
G0 X41.00 Y29.00
G1 Z0.00 F1200
G1 X44.75 Y29.00 F1200
G1 Z5.00 F1200
G0 X45.50 Y29.00
G1 Z0.00 F1200
G1 X46.00 Y29.00 F1200
G1 Z5.00 F1200
G0 X47.00 Y29.00
G1 Z0.00 F1200
G1 X50.25 Y29.00 F1200
G1 Z5.00 F1200
G0 X51.50 Y29.00
G1 Z0.00 F1200
G1 X53.25 Y29.00 F1200
G1 Z5.00 F1200
G0 X54.00 Y29.00
G1 Z0.00 F1200
G1 X60.50 Y29.00 F1200
G1 Z5.00 F1200
G0 X39.25 Y29.25
G1 Z0.00 F1200
G1 X45.50 Y29.25 F1200
G1 Z5.00 F1200
G0 X46.50 Y29.25
G1 Z0.00 F1200
G1 X48.25 Y29.25 F1200
G1 Z5.00 F1200
G0 X49.50 Y29.25
G1 Z0.00 F1200
G1 X52.75 Y29.25 F1200
G1 Z5.00 F1200
G0 X54.00 Y29.25
G1 Z0.00 F1200
G1 X54.50 Y29.25 F1200
G1 Z5.00 F1200
G0 X55.25 Y29.25
G1 Z0.00 F1200
G1 X59.00 Y29.25 F1200
G1 Z5.00 F1200
G0 X72.50 Y29.25
G1 Z0.00 F1200
G1 X73.00 Y29.25 F1200
G1 Z5.00 F1200
G0 X27.00 Y29.50
G1 Z0.00 F1200
G1 X27.50 Y29.50 F1200
G1 Z5.00 F1200
G0 X40.75 Y29.50
G1 Z0.00 F1200
G1 X44.50 Y29.50 F1200
G1 Z5.00 F1200
G0 X45.75 Y29.50
G1 Z0.00 F1200
G1 X46.50 Y29.50 F1200
G1 Z5.00 F1200
G0 X47.50 Y29.50
G1 Z0.00 F1200
G1 X50.75 Y29.50 F1200
G1 Z5.00 F1200
G0 X52.00 Y29.50
G1 Z0.00 F1200
G1 X53.75 Y29.50 F1200
G1 Z5.00 F1200
G0 X55.00 Y29.50
G1 Z0.00 F1200
G1 X60.75 Y29.50 F1200
G1 Z5.00 F1200
G0 X39.25 Y29.75
G1 Z0.00 F1200
G1 X40.25 Y29.75 F1200
G1 Z5.00 F1200
G0 X40.50 Y29.75
G1 Z0.00 F1200
G1 X44.50 Y29.75 F1200
G1 Z5.00 F1200
G0 X45.75 Y29.75
G1 Z0.00 F1200
G1 X47.75 Y29.75 F1200
G1 Z5.00 F1200
G0 X49.00 Y29.75
G1 Z0.00 F1200
G1 X52.25 Y29.75 F1200
G1 Z5.00 F1200
G0 X53.25 Y29.75
G1 Z0.00 F1200
G1 X54.00 Y29.75 F1200
G1 Z5.00 F1200
G0 X55.50 Y29.75
G1 Z0.00 F1200
G1 X59.25 Y29.75 F1200
G1 Z5.00 F1200
G0 X72.50 Y29.75
G1 Z0.00 F1200
G1 X73.00 Y29.75 F1200
G1 Z5.00 F1200
G0 X27.00 Y30.00
G1 Z0.00 F1200
G1 X27.50 Y30.00 F1200
G1 Z5.00 F1200
G0 X40.75 Y30.00
G1 Z0.00 F1200
G1 X44.50 Y30.00 F1200
G1 Z5.00 F1200
G0 X46.00 Y30.00
G1 Z0.00 F1200
G1 X47.00 Y30.00 F1200
G1 Z5.00 F1200
G0 X48.00 Y30.00
G1 Z0.00 F1200
G1 X51.25 Y30.00 F1200
G1 Z5.00 F1200
G0 X52.50 Y30.00
G1 Z0.00 F1200
G1 X54.75 Y30.00 F1200
G1 Z5.00 F1200
G0 X56.75 Y30.00
G1 Z0.00 F1200
G1 X59.50 Y30.00 F1200
G1 Z5.00 F1200
G0 X59.75 Y30.00
G1 Z0.00 F1200
G1 X60.75 Y30.00 F1200
G1 Z5.00 F1200
G0 X39.25 Y30.25
G1 Z0.00 F1200
G1 X40.25 Y30.25 F1200
G1 Z5.00 F1200
G0 X40.50 Y30.25
G1 Z0.00 F1200
G1 X47.00 Y30.25 F1200
G1 Z5.00 F1200
G0 X48.50 Y30.25
G1 Z0.00 F1200
G1 X51.50 Y30.25 F1200
G1 Z5.00 F1200
G0 X52.75 Y30.25
G1 Z0.00 F1200
G1 X53.75 Y30.25 F1200
G1 Z5.00 F1200
G0 X55.75 Y30.25
G1 Z0.00 F1200
G1 X59.25 Y30.25 F1200
G1 Z5.00 F1200
G0 X72.50 Y30.25
G1 Z0.00 F1200
G1 X73.00 Y30.25 F1200
G1 Z5.00 F1200
G0 X27.00 Y30.50
G1 Z0.00 F1200
G1 X27.25 Y30.50 F1200
G1 Z5.00 F1200
G0 X40.50 Y30.50
G1 Z0.00 F1200
G1 X44.25 Y30.50 F1200
G1 Z5.00 F1200
G0 X45.75 Y30.50
G1 Z0.00 F1200
G1 X46.00 Y30.50 F1200
G1 Z5.00 F1200
G0 X46.50 Y30.50
G1 Z0.00 F1200
G1 X47.50 Y30.50 F1200
G1 Z5.00 F1200
G0 X48.75 Y30.50
G1 Z0.00 F1200
G1 X51.75 Y30.50 F1200
G1 Z5.00 F1200
G0 X53.25 Y30.50
G1 Z0.00 F1200
G1 X60.75 Y30.50 F1200
G1 Z5.00 F1200
G0 X39.25 Y30.75
G1 Z0.00 F1200
G1 X46.50 Y30.75 F1200
G1 Z5.00 F1200
G0 X48.00 Y30.75
G1 Z0.00 F1200
G1 X51.00 Y30.75 F1200
G1 Z5.00 F1200
G0 X52.00 Y30.75
G1 Z0.00 F1200
G1 X54.25 Y30.75 F1200
G1 Z5.00 F1200
G0 X55.75 Y30.75
G1 Z0.00 F1200
G1 X59.50 Y30.75 F1200
G1 Z5.00 F1200
G0 X72.75 Y30.75
G1 Z0.00 F1200
G1 X73.25 Y30.75 F1200
G1 Z5.00 F1200
G0 X26.75 Y31.00
G1 Z0.00 F1200
G1 X27.25 Y31.00 F1200
G1 Z5.00 F1200
G0 X40.50 Y31.00
G1 Z0.00 F1200
G1 X44.00 Y31.00 F1200
G1 Z5.00 F1200
G0 X44.75 Y31.00
G1 Z0.00 F1200
G1 X45.00 Y31.00 F1200
G1 Z5.00 F1200
G0 X46.00 Y31.00
G1 Z0.00 F1200
G1 X48.50 Y31.00 F1200
G1 Z5.00 F1200
G0 X49.50 Y31.00
G1 Z0.00 F1200
G1 X52.50 Y31.00 F1200
G1 Z5.00 F1200
G0 X54.00 Y31.00
G1 Z0.00 F1200
G1 X60.50 Y31.00 F1200
G1 Z5.00 F1200
G0 X39.50 Y31.25
G1 Z0.00 F1200
G1 X45.75 Y31.25 F1200
G1 Z5.00 F1200
G0 X47.00 Y31.25
G1 Z0.00 F1200
G1 X50.25 Y31.25 F1200
G1 Z5.00 F1200
G0 X51.00 Y31.25
G1 Z0.00 F1200
G1 X53.75 Y31.25 F1200
G1 Z5.00 F1200
G0 X54.75 Y31.25
G1 Z0.00 F1200
G1 X55.25 Y31.25 F1200
G1 Z5.00 F1200
G0 X56.00 Y31.25
G1 Z0.00 F1200
G1 X59.50 Y31.25 F1200
G1 Z5.00 F1200
G0 X72.75 Y31.25
G1 Z0.00 F1200
G1 X73.25 Y31.25 F1200
G1 Z5.00 F1200
G0 X26.75 Y31.50
G1 Z0.00 F1200
G1 X27.25 Y31.50 F1200
G1 Z5.00 F1200
G0 X40.25 Y31.50
G1 Z0.00 F1200
G1 X43.75 Y31.50 F1200
G1 Z5.00 F1200
G0 X45.00 Y31.50
G1 Z0.00 F1200
G1 X45.50 Y31.50 F1200
G1 Z5.00 F1200
G0 X46.50 Y31.50
G1 Z0.00 F1200
G1 X49.50 Y31.50 F1200
G1 Z5.00 F1200
G0 X50.25 Y31.50
G1 Z0.00 F1200
G1 X53.50 Y31.50 F1200
G1 Z5.00 F1200
G0 X55.00 Y31.50
G1 Z0.00 F1200
G1 X60.50 Y31.50 F1200
G1 Z5.00 F1200
G0 X39.50 Y31.75
G1 Z0.00 F1200
G1 X44.25 Y31.75 F1200
G1 Z5.00 F1200
G0 X45.50 Y31.75
G1 Z0.00 F1200
G1 X49.25 Y31.75 F1200
G1 Z5.00 F1200
G0 X50.25 Y31.75
G1 Z0.00 F1200
G1 X53.25 Y31.75 F1200
G1 Z5.00 F1200
G0 X54.25 Y31.75
G1 Z0.00 F1200
G1 X54.75 Y31.75 F1200
G1 Z5.00 F1200
G0 X56.25 Y31.75
G1 Z0.00 F1200
G1 X59.75 Y31.75 F1200
G1 Z5.00 F1200
G0 X72.75 Y31.75
G1 Z0.00 F1200
G1 X73.25 Y31.75 F1200
G1 Z5.00 F1200
G0 X26.75 Y32.00
G1 Z0.00 F1200
G1 X27.25 Y32.00 F1200
G1 Z5.00 F1200
G0 X40.25 Y32.00
G1 Z0.00 F1200
G1 X43.50 Y32.00 F1200
G1 Z5.00 F1200
G0 X44.25 Y32.00
G1 Z0.00 F1200
G1 X44.50 Y32.00 F1200
G1 Z5.00 F1200
G0 X45.25 Y32.00
G1 Z0.00 F1200
G1 X46.00 Y32.00 F1200
G1 Z5.00 F1200
G0 X47.00 Y32.00
G1 Z0.00 F1200
G1 X50.50 Y32.00 F1200
G1 Z5.00 F1200
G0 X51.25 Y32.00
G1 Z0.00 F1200
G1 X60.50 Y32.00 F1200
G1 Z5.00 F1200
G0 X39.50 Y32.25
G1 Z0.00 F1200
G1 X48.25 Y32.25 F1200
G1 Z5.00 F1200
G0 X49.00 Y32.25
G1 Z0.00 F1200
G1 X52.75 Y32.25 F1200
G1 Z5.00 F1200
G0 X53.50 Y32.25
G1 Z0.00 F1200
G1 X54.50 Y32.25 F1200
G1 Z5.00 F1200
G0 X55.25 Y32.25
G1 Z0.00 F1200
G1 X55.50 Y32.25 F1200
G1 Z5.00 F1200
G0 X56.50 Y32.25
G1 Z0.00 F1200
G1 X59.75 Y32.25 F1200
G1 Z5.00 F1200
G0 X72.75 Y32.25
G1 Z0.00 F1200
G1 X73.25 Y32.25 F1200
G1 Z5.00 F1200
G0 X26.75 Y32.50
G1 Z0.00 F1200
G1 X27.25 Y32.50 F1200
G1 Z5.00 F1200
G0 X40.25 Y32.50
G1 Z0.00 F1200
G1 X43.25 Y32.50 F1200
G1 Z5.00 F1200
G0 X44.50 Y32.50
G1 Z0.00 F1200
G1 X45.00 Y32.50 F1200
G1 Z5.00 F1200
G0 X45.50 Y32.50
G1 Z0.00 F1200
G1 X46.75 Y32.50 F1200
G1 Z5.00 F1200
G0 X47.50 Y32.50
G1 Z0.00 F1200
G1 X51.75 Y32.50 F1200
G1 Z5.00 F1200
G0 X52.25 Y32.50
G1 Z0.00 F1200
G1 X60.25 Y32.50 F1200
G1 Z5.00 F1200
G0 X39.75 Y32.75
G1 Z0.00 F1200
G1 X52.25 Y32.75 F1200
G1 Z5.00 F1200
G0 X53.00 Y32.75
G1 Z0.00 F1200
G1 X54.25 Y32.75 F1200
G1 Z5.00 F1200
G0 X55.00 Y32.75
G1 Z0.00 F1200
G1 X55.25 Y32.75 F1200
G1 Z5.00 F1200
G0 X56.75 Y32.75
G1 Z0.00 F1200
G1 X59.75 Y32.75 F1200
G1 Z5.00 F1200
G0 X73.00 Y32.75
G1 Z0.00 F1200
G1 X73.25 Y32.75 F1200
G1 Z5.00 F1200
G0 X26.50 Y33.00
G1 Z0.00 F1200
G1 X27.00 Y33.00 F1200
G1 Z5.00 F1200
G0 X40.25 Y33.00
G1 Z0.00 F1200
G1 X43.25 Y33.00 F1200
G1 Z5.00 F1200
G0 X44.75 Y33.00
G1 Z0.00 F1200
G1 X45.25 Y33.00 F1200
G1 Z5.00 F1200
G0 X46.00 Y33.00
G1 Z0.00 F1200
G1 X47.50 Y33.00 F1200
G1 Z5.00 F1200
G0 X48.00 Y33.00
G1 Z0.00 F1200
G1 X60.25 Y33.00 F1200
G1 Z5.00 F1200
G0 X39.75 Y33.25
G1 Z0.00 F1200
G1 X51.50 Y33.25 F1200
G1 Z5.00 F1200
G0 X52.25 Y33.25
G1 Z0.00 F1200
G1 X53.75 Y33.25 F1200
G1 Z5.00 F1200
G0 X54.50 Y33.25
G1 Z0.00 F1200
G1 X55.00 Y33.25 F1200
G1 Z5.00 F1200
G0 X56.50 Y33.25
G1 Z0.00 F1200
G1 X60.00 Y33.25 F1200
G1 Z5.00 F1200
G0 X73.00 Y33.25
G1 Z0.00 F1200
G1 X73.50 Y33.25 F1200
G1 Z5.00 F1200
G0 X26.50 Y33.50
G1 Z0.00 F1200
G1 X27.00 Y33.50 F1200
G1 Z5.00 F1200
G0 X40.00 Y33.50
G1 Z0.00 F1200
G1 X43.75 Y33.50 F1200
G1 Z5.00 F1200
G0 X44.50 Y33.50
G1 Z0.00 F1200
G1 X44.75 Y33.50 F1200
G1 Z5.00 F1200
G0 X45.25 Y33.50
G1 Z0.00 F1200
G1 X45.75 Y33.50 F1200
G1 Z5.00 F1200
G0 X46.50 Y33.50
G1 Z0.00 F1200
G1 X48.25 Y33.50 F1200
G1 Z5.00 F1200
G0 X48.75 Y33.50
G1 Z0.00 F1200
G1 X60.25 Y33.50 F1200
G1 Z5.00 F1200
G0 X40.00 Y33.75
G1 Z0.00 F1200
G1 X51.00 Y33.75 F1200
G1 Z5.00 F1200
G0 X51.25 Y33.75
G1 Z0.00 F1200
G1 X53.50 Y33.75 F1200
G1 Z5.00 F1200
G0 X54.00 Y33.75
G1 Z0.00 F1200
G1 X54.75 Y33.75 F1200
G1 Z5.00 F1200
G0 X55.00 Y33.75
G1 Z0.00 F1200
G1 X55.25 Y33.75 F1200
G1 Z5.00 F1200
G0 X56.25 Y33.75
G1 Z0.00 F1200
G1 X60.00 Y33.75 F1200
G1 Z5.00 F1200
G0 X73.00 Y33.75
G1 Z0.00 F1200
G1 X73.50 Y33.75 F1200
G1 Z5.00 F1200
G0 X26.50 Y34.00
G1 Z0.00 F1200
G1 X27.00 Y34.00 F1200
G1 Z5.00 F1200
G0 X40.00 Y34.00
G1 Z0.00 F1200
G1 X44.00 Y34.00 F1200
G1 Z5.00 F1200
G0 X44.75 Y34.00
G1 Z0.00 F1200
G1 X45.25 Y34.00 F1200
G1 Z5.00 F1200
G0 X45.50 Y34.00
G1 Z0.00 F1200
G1 X46.25 Y34.00 F1200
G1 Z5.00 F1200
G0 X46.75 Y34.00
G1 Z0.00 F1200
G1 X60.00 Y34.00 F1200
G1 Z5.00 F1200
G0 X40.00 Y34.25
G1 Z0.00 F1200
G1 X52.75 Y34.25 F1200
G1 Z5.00 F1200
G0 X53.50 Y34.25
G1 Z0.00 F1200
G1 X54.25 Y34.25 F1200
G1 Z5.00 F1200
G0 X54.50 Y34.25
G1 Z0.00 F1200
G1 X55.00 Y34.25 F1200
G1 Z5.00 F1200
G0 X55.75 Y34.25
G1 Z0.00 F1200
G1 X60.00 Y34.25 F1200
G1 Z5.00 F1200
G0 X73.00 Y34.25
G1 Z0.00 F1200
G1 X73.50 Y34.25 F1200
G1 Z5.00 F1200
G0 X26.50 Y34.50
G1 Z0.00 F1200
G1 X27.00 Y34.50 F1200
G1 Z5.00 F1200
G0 X40.00 Y34.50
G1 Z0.00 F1200
G1 X44.50 Y34.50 F1200
G1 Z5.00 F1200
G0 X45.25 Y34.50
G1 Z0.00 F1200
G1 X45.75 Y34.50 F1200
G1 Z5.00 F1200
G0 X46.00 Y34.50
G1 Z0.00 F1200
G1 X47.00 Y34.50 F1200
G1 Z5.00 F1200
G0 X47.50 Y34.50
G1 Z0.00 F1200
G1 X60.00 Y34.50 F1200
G1 Z5.00 F1200
G0 X40.00 Y34.75
G1 Z0.00 F1200
G1 X52.25 Y34.75 F1200
G1 Z5.00 F1200
G0 X52.75 Y34.75
G1 Z0.00 F1200
G1 X54.50 Y34.75 F1200
G1 Z5.00 F1200
G0 X55.25 Y34.75
G1 Z0.00 F1200
G1 X60.00 Y34.75 F1200
G1 Z5.00 F1200
G0 X73.00 Y34.75
G1 Z0.00 F1200
G1 X73.50 Y34.75 F1200
G1 Z5.00 F1200
G0 X26.50 Y35.00
G1 Z0.00 F1200
G1 X26.75 Y35.00 F1200
G1 Z5.00 F1200
G0 X40.25 Y35.00
G1 Z0.00 F1200
G1 X45.00 Y35.00 F1200
G1 Z5.00 F1200
G0 X45.75 Y35.00
G1 Z0.00 F1200
G1 X47.75 Y35.00 F1200
G1 Z5.00 F1200
G0 X48.25 Y35.00
G1 Z0.00 F1200
G1 X59.75 Y35.00 F1200
G1 Z5.00 F1200
G0 X40.25 Y35.25
G1 Z0.00 F1200
G1 X54.00 Y35.25 F1200
G1 Z5.00 F1200
G0 X54.50 Y35.25
G1 Z0.00 F1200
G1 X59.50 Y35.25 F1200
G1 Z5.00 F1200
G0 X62.25 Y35.25
G1 Z0.00 F1200
G1 X62.50 Y35.25 F1200
G1 Z5.00 F1200
G0 X73.25 Y35.25
G1 Z0.00 F1200
G1 X73.75 Y35.25 F1200
G1 Z5.00 F1200
G0 X26.25 Y35.50
G1 Z0.00 F1200
G1 X26.75 Y35.50 F1200
G1 Z5.00 F1200
G0 X36.75 Y35.50
G1 Z0.00 F1200
G1 X37.75 Y35.50 F1200
G1 Z5.00 F1200
G0 X40.50 Y35.50
G1 Z0.00 F1200
G1 X45.75 Y35.50 F1200
G1 Z5.00 F1200
G0 X46.25 Y35.50
G1 Z0.00 F1200
G1 X59.75 Y35.50 F1200
G1 Z5.00 F1200
G0 X40.25 Y35.75
G1 Z0.00 F1200
G1 X53.50 Y35.75 F1200
G1 Z5.00 F1200
G0 X54.00 Y35.75
G1 Z0.00 F1200
G1 X59.25 Y35.75 F1200
G1 Z5.00 F1200
G0 X61.50 Y35.75
G1 Z0.00 F1200
G1 X63.50 Y35.75 F1200
G1 Z5.00 F1200
G0 X73.25 Y35.75
G1 Z0.00 F1200
G1 X73.75 Y35.75 F1200
G1 Z5.00 F1200
G0 X26.25 Y36.00
G1 Z0.00 F1200
G1 X26.50 Y36.00 F1200
G1 Z5.00 F1200
G0 X36.00 Y36.00
G1 Z0.00 F1200
G1 X39.00 Y36.00 F1200
G1 Z5.00 F1200
G0 X41.00 Y36.00
G1 Z0.00 F1200
G1 X46.50 Y36.00 F1200
G1 Z5.00 F1200
G0 X46.75 Y36.00
G1 Z0.00 F1200
G1 X59.75 Y36.00 F1200
G1 Z5.00 F1200
G0 X40.25 Y36.25
G1 Z0.00 F1200
G1 X58.75 Y36.25 F1200
G1 Z5.00 F1200
G0 X60.75 Y36.25
G1 Z0.00 F1200
G1 X64.25 Y36.25 F1200
G1 Z5.00 F1200
G0 X73.50 Y36.25
G1 Z0.00 F1200
G1 X74.00 Y36.25 F1200
G1 Z5.00 F1200
G0 X26.00 Y36.50
G1 Z0.00 F1200
G1 X26.50 Y36.50 F1200
G1 Z5.00 F1200
G0 X35.50 Y36.50
G1 Z0.00 F1200
G1 X39.50 Y36.50 F1200
G1 Z5.00 F1200
G0 X41.25 Y36.50
G1 Z0.00 F1200
G1 X59.75 Y36.50 F1200
G1 Z5.00 F1200
G0 X40.50 Y36.75
G1 Z0.00 F1200
G1 X53.75 Y36.75 F1200
G1 Z5.00 F1200
G0 X54.25 Y36.75
G1 Z0.00 F1200
G1 X58.50 Y36.75 F1200
G1 Z5.00 F1200
G0 X60.25 Y36.75
G1 Z0.00 F1200
G1 X64.75 Y36.75 F1200
G1 Z5.00 F1200
G0 X73.75 Y36.75
G1 Z0.00 F1200
G1 X74.00 Y36.75 F1200
G1 Z5.00 F1200
G0 X25.75 Y37.00
G1 Z0.00 F1200
G1 X26.25 Y37.00 F1200
G1 Z5.00 F1200
G0 X34.75 Y37.00
G1 Z0.00 F1200
G1 X40.00 Y37.00 F1200
G1 Z5.00 F1200
G0 X41.50 Y37.00
G1 Z0.00 F1200
G1 X46.00 Y37.00 F1200
G1 Z5.00 F1200
G0 X46.50 Y37.00
G1 Z0.00 F1200
G1 X59.50 Y37.00 F1200
G1 Z5.00 F1200
G0 X40.50 Y37.25
G1 Z0.00 F1200
G1 X53.50 Y37.25 F1200
G1 Z5.00 F1200
G0 X53.75 Y37.25
G1 Z0.00 F1200
G1 X58.25 Y37.25 F1200
G1 Z5.00 F1200
G0 X59.75 Y37.25
G1 Z0.00 F1200
G1 X65.50 Y37.25 F1200
G1 Z5.00 F1200
G0 X73.75 Y37.25
G1 Z0.00 F1200
G1 X74.25 Y37.25 F1200
G1 Z5.00 F1200
G0 X25.50 Y37.50
G1 Z0.00 F1200
G1 X26.00 Y37.50 F1200
G1 Z5.00 F1200
G0 X34.25 Y37.50
G1 Z0.00 F1200
G1 X40.50 Y37.50 F1200
G1 Z5.00 F1200
G0 X41.75 Y37.50
G1 Z0.00 F1200
G1 X46.25 Y37.50 F1200
G1 Z5.00 F1200
G0 X46.75 Y37.50
G1 Z0.00 F1200
G1 X59.50 Y37.50 F1200
G1 Z5.00 F1200
G0 X40.50 Y37.75
G1 Z0.00 F1200
G1 X53.00 Y37.75 F1200
G1 Z5.00 F1200
G0 X53.50 Y37.75
G1 Z0.00 F1200
G1 X58.00 Y37.75 F1200
G1 Z5.00 F1200
G0 X59.25 Y37.75
G1 Z0.00 F1200
G1 X61.00 Y37.75 F1200
G1 Z5.00 F1200
G0 X62.50 Y37.75
G1 Z0.00 F1200
G1 X66.25 Y37.75 F1200
G1 Z5.00 F1200
G0 X73.75 Y37.75
G1 Z0.00 F1200
G1 X74.50 Y37.75 F1200
G1 Z5.00 F1200
G0 X25.50 Y38.00
G1 Z0.00 F1200
G1 X26.50 Y38.00 F1200
G1 Z5.00 F1200
G0 X33.25 Y38.00
G1 Z0.00 F1200
G1 X37.25 Y38.00 F1200
G1 Z5.00 F1200
G0 X39.75 Y38.00
G1 Z0.00 F1200
G1 X40.75 Y38.00 F1200
G1 Z5.00 F1200
G0 X42.00 Y38.00
G1 Z0.00 F1200
G1 X46.50 Y38.00 F1200
G1 Z5.00 F1200
G0 X47.25 Y38.00
G1 Z0.00 F1200
G1 X59.50 Y38.00 F1200
G1 Z5.00 F1200
G0 X40.50 Y38.25
G1 Z0.00 F1200
G1 X52.75 Y38.25 F1200
G1 Z5.00 F1200
G0 X53.50 Y38.25
G1 Z0.00 F1200
G1 X57.75 Y38.25 F1200
G1 Z5.00 F1200
G0 X59.00 Y38.25
G1 Z0.00 F1200
G1 X59.50 Y38.25 F1200
G1 Z5.00 F1200
G0 X63.25 Y38.25
G1 Z0.00 F1200
G1 X67.00 Y38.25 F1200
G1 Z5.00 F1200
G0 X67.50 Y38.25
G1 Z0.00 F1200
G1 X67.75 Y38.25 F1200
G1 Z5.00 F1200
G0 X73.25 Y38.25
G1 Z0.00 F1200
G1 X74.50 Y38.25 F1200
G1 Z5.00 F1200
G0 X25.25 Y38.50
G1 Z0.00 F1200
G1 X27.00 Y38.50 F1200
G1 Z5.00 F1200
G0 X32.25 Y38.50
G1 Z0.00 F1200
G1 X32.50 Y38.50 F1200
G1 Z5.00 F1200
G0 X32.75 Y38.50
G1 Z0.00 F1200
G1 X36.50 Y38.50 F1200
G1 Z5.00 F1200
G0 X41.00 Y38.50
G1 Z0.00 F1200
G1 X41.25 Y38.50 F1200
G1 Z5.00 F1200
G0 X42.25 Y38.50
G1 Z0.00 F1200
G1 X46.75 Y38.50 F1200
G1 Z5.00 F1200
G0 X47.50 Y38.50
G1 Z0.00 F1200
G1 X59.50 Y38.50 F1200
G1 Z5.00 F1200
G0 X40.50 Y38.75
G1 Z0.00 F1200
G1 X52.75 Y38.75 F1200
G1 Z5.00 F1200
G0 X53.25 Y38.75
G1 Z0.00 F1200
G1 X57.75 Y38.75 F1200
G1 Z5.00 F1200
G0 X61.25 Y38.75
G1 Z0.00 F1200
G1 X68.00 Y38.75 F1200
G1 Z5.00 F1200
G0 X69.00 Y38.75
G1 Z0.00 F1200
G1 X69.25 Y38.75 F1200
G1 Z5.00 F1200
G0 X72.50 Y38.75
G1 Z0.00 F1200
G1 X74.75 Y38.75 F1200
G1 Z5.00 F1200
G0 X25.25 Y39.00
G1 Z0.00 F1200
G1 X27.75 Y39.00 F1200
G1 Z5.00 F1200
G0 X30.75 Y39.00
G1 Z0.00 F1200
G1 X31.00 Y39.00 F1200
G1 Z5.00 F1200
G0 X32.00 Y39.00
G1 Z0.00 F1200
G1 X40.50 Y39.00 F1200
G1 Z5.00 F1200
G0 X42.50 Y39.00
G1 Z0.00 F1200
G1 X47.00 Y39.00 F1200
G1 Z5.00 F1200
G0 X47.50 Y39.00
G1 Z0.00 F1200
G1 X59.50 Y39.00 F1200
G1 Z5.00 F1200
G0 X40.50 Y39.25
G1 Z0.00 F1200
G1 X52.50 Y39.25 F1200
G1 Z5.00 F1200
G0 X53.00 Y39.25
G1 Z0.00 F1200
G1 X57.50 Y39.25 F1200
G1 Z5.00 F1200
G0 X58.50 Y39.25
G1 Z0.00 F1200
G1 X61.50 Y39.25 F1200
G1 Z5.00 F1200
G0 X64.75 Y39.25
G1 Z0.00 F1200
G1 X68.75 Y39.25 F1200
G1 Z5.00 F1200
G0 X69.00 Y39.25
G1 Z0.00 F1200
G1 X69.25 Y39.25 F1200
G1 Z5.00 F1200
G0 X72.00 Y39.25
G1 Z0.00 F1200
G1 X75.75 Y39.25 F1200
G1 Z5.00 F1200
G0 X23.00 Y39.50
G1 Z0.00 F1200
G1 X28.25 Y39.50 F1200
G1 Z5.00 F1200
G0 X28.50 Y39.50
G1 Z0.00 F1200
G1 X28.75 Y39.50 F1200
G1 Z5.00 F1200
G0 X30.75 Y39.50
G1 Z0.00 F1200
G1 X33.75 Y39.50 F1200
G1 Z5.00 F1200
G0 X40.25 Y39.50
G1 Z0.00 F1200
G1 X59.50 Y39.50 F1200
G1 Z5.00 F1200
G0 X40.50 Y39.75
G1 Z0.00 F1200
G1 X45.00 Y39.75 F1200
G1 Z5.00 F1200
G0 X46.50 Y39.75
G1 Z0.00 F1200
G1 X59.00 Y39.75 F1200
G1 Z5.00 F1200
G0 X66.75 Y39.75
G1 Z0.00 F1200
G1 X69.25 Y39.75 F1200
G1 Z5.00 F1200
G0 X71.00 Y39.75
G1 Z0.00 F1200
G1 X71.25 Y39.75 F1200
G1 Z5.00 F1200
G0 X71.50 Y39.75
G1 Z0.00 F1200
G1 X74.25 Y39.75 F1200
G1 Z5.00 F1200
G0 X76.25 Y39.75
G1 Z0.00 F1200
G1 X77.75 Y39.75 F1200
G1 Z5.00 F1200
G0 X22.00 Y40.00
G1 Z0.00 F1200
G1 X22.75 Y40.00 F1200
G1 Z5.00 F1200
G0 X26.75 Y40.00
G1 Z0.00 F1200
G1 X29.00 Y40.00 F1200
G1 Z5.00 F1200
G0 X31.00 Y40.00
G1 Z0.00 F1200
G1 X32.75 Y40.00 F1200
G1 Z5.00 F1200
G0 X41.25 Y40.00
G1 Z0.00 F1200
G1 X42.00 Y40.00 F1200
G1 Z5.00 F1200
G0 X52.50 Y40.00
G1 Z0.00 F1200
G1 X53.25 Y40.00 F1200
G1 Z5.00 F1200
G0 X55.50 Y40.00
G1 Z0.00 F1200
G1 X59.50 Y40.00 F1200
G1 Z5.00 F1200
G0 X40.50 Y40.25
G1 Z0.00 F1200
G1 X44.25 Y40.25 F1200
G1 Z5.00 F1200
G0 X47.25 Y40.25
G1 Z0.00 F1200
G1 X47.75 Y40.25 F1200
G1 Z5.00 F1200
G0 X58.00 Y40.25
G1 Z0.00 F1200
G1 X58.75 Y40.25 F1200
G1 Z5.00 F1200
G0 X62.00 Y40.25
G1 Z0.00 F1200
G1 X65.75 Y40.25 F1200
G1 Z5.00 F1200
G0 X67.75 Y40.25
G1 Z0.00 F1200
G1 X69.00 Y40.25 F1200
G1 Z5.00 F1200
G0 X71.00 Y40.25
G1 Z0.00 F1200
G1 X72.75 Y40.25 F1200
G1 Z5.00 F1200
G0 X77.75 Y40.25
G1 Z0.00 F1200
G1 X78.00 Y40.25 F1200
G1 Z5.00 F1200
G0 X22.00 Y40.50
G1 Z0.00 F1200
G1 X22.25 Y40.50 F1200
G1 Z5.00 F1200
G0 X23.75 Y40.50
G1 Z0.00 F1200
G1 X26.00 Y40.50 F1200
G1 Z5.00 F1200
G0 X27.75 Y40.50
G1 Z0.00 F1200
G1 X29.25 Y40.50 F1200
G1 Z5.00 F1200
G0 X31.25 Y40.50
G1 Z0.00 F1200
G1 X32.00 Y40.50 F1200
G1 Z5.00 F1200
G0 X33.50 Y40.50
G1 Z0.00 F1200
G1 X34.75 Y40.50 F1200
G1 Z5.00 F1200
G0 X37.25 Y40.50
G1 Z0.00 F1200
G1 X38.75 Y40.50 F1200
G1 Z5.00 F1200
G0 X41.25 Y40.50
G1 Z0.00 F1200
G1 X42.00 Y40.50 F1200
G1 Z5.00 F1200
G0 X52.00 Y40.50
G1 Z0.00 F1200
G1 X52.50 Y40.50 F1200
G1 Z5.00 F1200
G0 X55.75 Y40.50
G1 Z0.00 F1200
G1 X59.50 Y40.50 F1200
G1 Z5.00 F1200
G0 X40.25 Y40.75
G1 Z0.00 F1200
G1 X44.00 Y40.75 F1200
G1 Z5.00 F1200
G0 X47.75 Y40.75
G1 Z0.00 F1200
G1 X48.25 Y40.75 F1200
G1 Z5.00 F1200
G0 X58.00 Y40.75
G1 Z0.00 F1200
G1 X58.75 Y40.75 F1200
G1 Z5.00 F1200
G0 X61.00 Y40.75
G1 Z0.00 F1200
G1 X61.75 Y40.75 F1200
G1 Z5.00 F1200
G0 X65.50 Y40.75
G1 Z0.00 F1200
G1 X67.00 Y40.75 F1200
G1 Z5.00 F1200
G0 X68.25 Y40.75
G1 Z0.00 F1200
G1 X68.75 Y40.75 F1200
G1 Z5.00 F1200
G0 X70.75 Y40.75
G1 Z0.00 F1200
G1 X72.00 Y40.75 F1200
G1 Z5.00 F1200
G0 X73.25 Y40.75
G1 Z0.00 F1200
G1 X74.50 Y40.75 F1200
G1 Z5.00 F1200
G0 X76.00 Y40.75
G1 Z0.00 F1200
G1 X76.50 Y40.75 F1200
G1 Z5.00 F1200
G0 X77.75 Y40.75
G1 Z0.00 F1200
G1 X78.00 Y40.75 F1200
G1 Z5.00 F1200
G0 X22.00 Y41.00
G1 Z0.00 F1200
G1 X22.25 Y41.00 F1200
G1 Z5.00 F1200
G0 X23.25 Y41.00
G1 Z0.00 F1200
G1 X23.50 Y41.00 F1200
G1 Z5.00 F1200
G0 X23.75 Y41.00
G1 Z0.00 F1200
G1 X26.00 Y41.00 F1200
G1 Z5.00 F1200
G0 X26.75 Y41.00
G1 Z0.00 F1200
G1 X27.25 Y41.00 F1200
G1 Z5.00 F1200
G0 X28.25 Y41.00
G1 Z0.00 F1200
G1 X29.25 Y41.00 F1200
G1 Z5.00 F1200
G0 X31.25 Y41.00
G1 Z0.00 F1200
G1 X31.50 Y41.00 F1200
G1 Z5.00 F1200
G0 X32.50 Y41.00
G1 Z0.00 F1200
G1 X34.25 Y41.00 F1200
G1 Z5.00 F1200
G0 X38.75 Y41.00
G1 Z0.00 F1200
G1 X39.25 Y41.00 F1200
G1 Z5.00 F1200
G0 X41.25 Y41.00
G1 Z0.00 F1200
G1 X42.00 Y41.00 F1200
G1 Z5.00 F1200
G0 X51.50 Y41.00
G1 Z0.00 F1200
G1 X52.00 Y41.00 F1200
G1 Z5.00 F1200
G0 X54.25 Y41.00
G1 Z0.00 F1200
G1 X55.00 Y41.00 F1200
G1 Z5.00 F1200
G0 X56.00 Y41.00
G1 Z0.00 F1200
G1 X59.75 Y41.00 F1200
G1 Z5.00 F1200
G0 X40.25 Y41.25
G1 Z0.00 F1200
G1 X43.75 Y41.25 F1200
G1 Z5.00 F1200
G0 X44.75 Y41.25
G1 Z0.00 F1200
G1 X46.25 Y41.25 F1200
G1 Z5.00 F1200
G0 X48.00 Y41.25
G1 Z0.00 F1200
G1 X51.50 Y41.25 F1200
G1 Z5.00 F1200
G0 X58.00 Y41.25
G1 Z0.00 F1200
G1 X58.75 Y41.25 F1200
G1 Z5.00 F1200
G0 X60.50 Y41.25
G1 Z0.00 F1200
G1 X61.00 Y41.25 F1200
G1 Z5.00 F1200
G0 X63.25 Y41.25
G1 Z0.00 F1200
G1 X65.00 Y41.25 F1200
G1 Z5.00 F1200
G0 X66.00 Y41.25
G1 Z0.00 F1200
G1 X67.75 Y41.25 F1200
G1 Z5.00 F1200
G0 X68.75 Y41.25
G1 Z0.00 F1200
G1 X69.00 Y41.25 F1200
G1 Z5.00 F1200
G0 X70.50 Y41.25
G1 Z0.00 F1200
G1 X71.50 Y41.25 F1200
G1 Z5.00 F1200
G0 X72.25 Y41.25
G1 Z0.00 F1200
G1 X72.75 Y41.25 F1200
G1 Z5.00 F1200
G0 X73.75 Y41.25
G1 Z0.00 F1200
G1 X76.25 Y41.25 F1200
G1 Z5.00 F1200
G0 X76.50 Y41.25
G1 Z0.00 F1200
G1 X76.75 Y41.25 F1200
G1 Z5.00 F1200
G0 X77.75 Y41.25
G1 Z0.00 F1200
G1 X78.00 Y41.25 F1200
G1 Z5.00 F1200
G0 X22.00 Y41.50
G1 Z0.00 F1200
G1 X22.25 Y41.50 F1200
G1 Z5.00 F1200
G0 X23.00 Y41.50
G1 Z0.00 F1200
G1 X23.25 Y41.50 F1200
G1 Z5.00 F1200
G0 X23.75 Y41.50
G1 Z0.00 F1200
G1 X26.25 Y41.50 F1200
G1 Z5.00 F1200
G0 X27.50 Y41.50
G1 Z0.00 F1200
G1 X28.00 Y41.50 F1200
G1 Z5.00 F1200
G0 X28.75 Y41.50
G1 Z0.00 F1200
G1 X30.00 Y41.50 F1200
G1 Z5.00 F1200
G0 X30.50 Y41.50
G1 Z0.00 F1200
G1 X31.00 Y41.50 F1200
G1 Z5.00 F1200
G0 X32.00 Y41.50
G1 Z0.00 F1200
G1 X34.00 Y41.50 F1200
G1 Z5.00 F1200
G0 X34.75 Y41.50
G1 Z0.00 F1200
G1 X37.25 Y41.50 F1200
G1 Z5.00 F1200
G0 X39.25 Y41.50
G1 Z0.00 F1200
G1 X39.50 Y41.50 F1200
G1 Z5.00 F1200
G0 X41.25 Y41.50
G1 Z0.00 F1200
G1 X42.00 Y41.50 F1200
G1 Z5.00 F1200
G0 X45.50 Y41.50
G1 Z0.00 F1200
G1 X51.75 Y41.50 F1200
G1 Z5.00 F1200
G0 X53.25 Y41.50
G1 Z0.00 F1200
G1 X55.50 Y41.50 F1200
G1 Z5.00 F1200
G0 X56.25 Y41.50
G1 Z0.00 F1200
G1 X58.75 Y41.50 F1200
G1 Z5.00 F1200
G0 X59.00 Y41.50
G1 Z0.00 F1200
G1 X59.75 Y41.50 F1200
G1 Z5.00 F1200
G0 X40.00 Y41.75
G1 Z0.00 F1200
G1 X41.00 Y41.75 F1200
G1 Z5.00 F1200
G0 X41.25 Y41.75
G1 Z0.00 F1200
G1 X43.75 Y41.75 F1200
G1 Z5.00 F1200
G0 X44.25 Y41.75
G1 Z0.00 F1200
G1 X47.00 Y41.75 F1200
G1 Z5.00 F1200
G0 X48.50 Y41.75
G1 Z0.00 F1200
G1 X52.50 Y41.75 F1200
G1 Z5.00 F1200
G0 X52.75 Y41.75
G1 Z0.00 F1200
G1 X57.25 Y41.75 F1200
G1 Z5.00 F1200
G0 X58.00 Y41.75
G1 Z0.00 F1200
G1 X58.75 Y41.75 F1200
G1 Z5.00 F1200
G0 X60.25 Y41.75
G1 Z0.00 F1200
G1 X60.75 Y41.75 F1200
G1 Z5.00 F1200
G0 X62.25 Y41.75
G1 Z0.00 F1200
G1 X63.25 Y41.75 F1200
G1 Z5.00 F1200
G0 X65.00 Y41.75
G1 Z0.00 F1200
G1 X65.75 Y41.75 F1200
G1 Z5.00 F1200
G0 X66.25 Y41.75
G1 Z0.00 F1200
G1 X67.50 Y41.75 F1200
G1 Z5.00 F1200
G0 X67.75 Y41.75
G1 Z0.00 F1200
G1 X68.00 Y41.75 F1200
G1 Z5.00 F1200
G0 X69.25 Y41.75
G1 Z0.00 F1200
G1 X71.00 Y41.75 F1200
G1 Z5.00 F1200
G0 X71.75 Y41.75
G1 Z0.00 F1200
G1 X72.25 Y41.75 F1200
G1 Z5.00 F1200
G0 X73.75 Y41.75
G1 Z0.00 F1200
G1 X76.25 Y41.75 F1200
G1 Z5.00 F1200
G0 X76.75 Y41.75
G1 Z0.00 F1200
G1 X77.00 Y41.75 F1200
G1 Z5.00 F1200
G0 X77.75 Y41.75
G1 Z0.00 F1200
G1 X78.00 Y41.75 F1200
G1 Z5.00 F1200
G0 X22.00 Y42.00
G1 Z0.00 F1200
G1 X22.50 Y42.00 F1200
G1 Z5.00 F1200
G0 X23.00 Y42.00
G1 Z0.00 F1200
G1 X23.25 Y42.00 F1200
G1 Z5.00 F1200
G0 X23.75 Y42.00
G1 Z0.00 F1200
G1 X26.50 Y42.00 F1200
G1 Z5.00 F1200
G0 X27.25 Y42.00
G1 Z0.00 F1200
G1 X28.25 Y42.00 F1200
G1 Z5.00 F1200
G0 X29.50 Y42.00
G1 Z0.00 F1200
G1 X30.25 Y42.00 F1200
G1 Z5.00 F1200
G0 X31.75 Y42.00
G1 Z0.00 F1200
G1 X32.00 Y42.00 F1200
G1 Z5.00 F1200
G0 X32.25 Y42.00
G1 Z0.00 F1200
G1 X33.75 Y42.00 F1200
G1 Z5.00 F1200
G0 X34.00 Y42.00
G1 Z0.00 F1200
G1 X34.75 Y42.00 F1200
G1 Z5.00 F1200
G0 X37.50 Y42.00
G1 Z0.00 F1200
G1 X38.00 Y42.00 F1200
G1 Z5.00 F1200
G0 X39.50 Y42.00
G1 Z0.00 F1200
G1 X39.75 Y42.00 F1200
G1 Z5.00 F1200
G0 X41.25 Y42.00
G1 Z0.00 F1200
G1 X44.50 Y42.00 F1200
G1 Z5.00 F1200
G0 X47.00 Y42.00
G1 Z0.00 F1200
G1 X47.25 Y42.00 F1200
G1 Z5.00 F1200
G0 X47.50 Y42.00
G1 Z0.00 F1200
G1 X50.75 Y42.00 F1200
G1 Z5.00 F1200
G0 X51.00 Y42.00
G1 Z0.00 F1200
G1 X51.25 Y42.00 F1200
G1 Z5.00 F1200
G0 X53.00 Y42.00
G1 Z0.00 F1200
G1 X55.75 Y42.00 F1200
G1 Z5.00 F1200
G0 X56.50 Y42.00
G1 Z0.00 F1200
G1 X58.75 Y42.00 F1200
G1 Z5.00 F1200
G0 X59.25 Y42.00
G1 Z0.00 F1200
G1 X60.00 Y42.00 F1200
G1 Z5.00 F1200
G0 X39.75 Y42.25
G1 Z0.00 F1200
G1 X40.50 Y42.25 F1200
G1 Z5.00 F1200
G0 X41.25 Y42.25
G1 Z0.00 F1200
G1 X43.50 Y42.25 F1200
G1 Z5.00 F1200
G0 X44.25 Y42.25
G1 Z0.00 F1200
G1 X47.25 Y42.25 F1200
G1 Z5.00 F1200
G0 X48.75 Y42.25
G1 Z0.00 F1200
G1 X49.25 Y42.25 F1200
G1 Z5.00 F1200
G0 X49.50 Y42.25
G1 Z0.00 F1200
G1 X52.50 Y42.25 F1200
G1 Z5.00 F1200
G0 X52.75 Y42.25
G1 Z0.00 F1200
G1 X53.25 Y42.25 F1200
G1 Z5.00 F1200
G0 X57.75 Y42.25
G1 Z0.00 F1200
G1 X59.00 Y42.25 F1200
G1 Z5.00 F1200
G0 X60.25 Y42.25
G1 Z0.00 F1200
G1 X60.50 Y42.25 F1200
G1 Z5.00 F1200
G0 X61.50 Y42.25
G1 Z0.00 F1200
G1 X62.00 Y42.25 F1200
G1 Z5.00 F1200
G0 X65.50 Y42.25
G1 Z0.00 F1200
G1 X67.75 Y42.25 F1200
G1 Z5.00 F1200
G0 X68.00 Y42.25
G1 Z0.00 F1200
G1 X68.25 Y42.25 F1200
G1 Z5.00 F1200
G0 X71.50 Y42.25
G1 Z0.00 F1200
G1 X72.00 Y42.25 F1200
G1 Z5.00 F1200
G0 X72.50 Y42.25
G1 Z0.00 F1200
G1 X73.00 Y42.25 F1200
G1 Z5.00 F1200
G0 X73.25 Y42.25
G1 Z0.00 F1200
G1 X73.75 Y42.25 F1200
G1 Z5.00 F1200
G0 X74.00 Y42.25
G1 Z0.00 F1200
G1 X76.25 Y42.25 F1200
G1 Z5.00 F1200
G0 X76.50 Y42.25
G1 Z0.00 F1200
G1 X77.00 Y42.25 F1200
G1 Z5.00 F1200
G0 X77.50 Y42.25
G1 Z0.00 F1200
G1 X77.75 Y42.25 F1200
G1 Z5.00 F1200
G0 X22.25 Y42.50
G1 Z0.00 F1200
G1 X22.75 Y42.50 F1200
G1 Z5.00 F1200
G0 X23.25 Y42.50
G1 Z0.00 F1200
G1 X23.50 Y42.50 F1200
G1 Z5.00 F1200
G0 X26.50 Y42.50
G1 Z0.00 F1200
G1 X27.25 Y42.50 F1200
G1 Z5.00 F1200
G0 X28.25 Y42.50
G1 Z0.00 F1200
G1 X28.50 Y42.50 F1200
G1 Z5.00 F1200
G0 X31.50 Y42.50
G1 Z0.00 F1200
G1 X31.75 Y42.50 F1200
G1 Z5.00 F1200
G0 X32.25 Y42.50
G1 Z0.00 F1200
G1 X34.25 Y42.50 F1200
G1 Z5.00 F1200
G0 X38.25 Y42.50
G1 Z0.00 F1200
G1 X38.75 Y42.50 F1200
G1 Z5.00 F1200
G0 X39.50 Y42.50
G1 Z0.00 F1200
G1 X39.75 Y42.50 F1200
G1 Z5.00 F1200
G0 X41.00 Y42.50
G1 Z0.00 F1200
G1 X42.25 Y42.50 F1200
G1 Z5.00 F1200
G0 X45.25 Y42.50
G1 Z0.00 F1200
G1 X47.25 Y42.50 F1200
G1 Z5.00 F1200
G0 X47.75 Y42.50
G1 Z0.00 F1200
G1 X50.25 Y42.50 F1200
G1 Z5.00 F1200
G0 X50.75 Y42.50
G1 Z0.00 F1200
G1 X51.00 Y42.50 F1200
G1 Z5.00 F1200
G0 X52.50 Y42.50
G1 Z0.00 F1200
G1 X54.50 Y42.50 F1200
G1 Z5.00 F1200
G0 X54.75 Y42.50
G1 Z0.00 F1200
G1 X55.75 Y42.50 F1200
G1 Z5.00 F1200
G0 X56.50 Y42.50
G1 Z0.00 F1200
G1 X58.75 Y42.50 F1200
G1 Z5.00 F1200
G0 X59.75 Y42.50
G1 Z0.00 F1200
G1 X60.25 Y42.50 F1200
G1 Z5.00 F1200
G0 X39.50 Y42.75
G1 Z0.00 F1200
G1 X40.00 Y42.75 F1200
G1 Z5.00 F1200
G0 X41.00 Y42.75
G1 Z0.00 F1200
G1 X43.50 Y42.75 F1200
G1 Z5.00 F1200
G0 X44.25 Y42.75
G1 Z0.00 F1200
G1 X45.00 Y42.75 F1200
G1 Z5.00 F1200
G0 X45.25 Y42.75
G1 Z0.00 F1200
G1 X45.75 Y42.75 F1200
G1 Z5.00 F1200
G0 X46.25 Y42.75
G1 Z0.00 F1200
G1 X47.75 Y42.75 F1200
G1 Z5.00 F1200
G0 X49.00 Y42.75
G1 Z0.00 F1200
G1 X49.50 Y42.75 F1200
G1 Z5.00 F1200
G0 X50.00 Y42.75
G1 Z0.00 F1200
G1 X52.25 Y42.75 F1200
G1 Z5.00 F1200
G0 X52.75 Y42.75
G1 Z0.00 F1200
G1 X55.75 Y42.75 F1200
G1 Z5.00 F1200
G0 X57.25 Y42.75
G1 Z0.00 F1200
G1 X59.25 Y42.75 F1200
G1 Z5.00 F1200
G0 X60.00 Y42.75
G1 Z0.00 F1200
G1 X60.50 Y42.75 F1200
G1 Z5.00 F1200
G0 X61.00 Y42.75
G1 Z0.00 F1200
G1 X61.50 Y42.75 F1200
G1 Z5.00 F1200
G0 X61.75 Y42.75
G1 Z0.00 F1200
G1 X62.00 Y42.75 F1200
G1 Z5.00 F1200
G0 X65.75 Y42.75
G1 Z0.00 F1200
G1 X67.75 Y42.75 F1200
G1 Z5.00 F1200
G0 X68.25 Y42.75
G1 Z0.00 F1200
G1 X68.50 Y42.75 F1200
G1 Z5.00 F1200
G0 X71.25 Y42.75
G1 Z0.00 F1200
G1 X71.50 Y42.75 F1200
G1 Z5.00 F1200
G0 X73.00 Y42.75
G1 Z0.00 F1200
G1 X73.25 Y42.75 F1200
G1 Z5.00 F1200
G0 X76.50 Y42.75
G1 Z0.00 F1200
G1 X76.75 Y42.75 F1200
G1 Z5.00 F1200
G0 X77.25 Y42.75
G1 Z0.00 F1200
G1 X77.50 Y42.75 F1200
G1 Z5.00 F1200
G0 X22.50 Y43.00
G1 Z0.00 F1200
G1 X22.75 Y43.00 F1200
G1 Z5.00 F1200
G0 X23.25 Y43.00
G1 Z0.00 F1200
G1 X23.50 Y43.00 F1200
G1 Z5.00 F1200
G0 X26.75 Y43.00
G1 Z0.00 F1200
G1 X27.00 Y43.00 F1200
G1 Z5.00 F1200
G0 X27.25 Y43.00
G1 Z0.00 F1200
G1 X28.00 Y43.00 F1200
G1 Z5.00 F1200
G0 X28.50 Y43.00
G1 Z0.00 F1200
G1 X28.75 Y43.00 F1200
G1 Z5.00 F1200
G0 X31.50 Y43.00
G1 Z0.00 F1200
G1 X31.75 Y43.00 F1200
G1 Z5.00 F1200
G0 X32.00 Y43.00
G1 Z0.00 F1200
G1 X34.00 Y43.00 F1200
G1 Z5.00 F1200
G0 X35.00 Y43.00
G1 Z0.00 F1200
G1 X35.50 Y43.00 F1200
G1 Z5.00 F1200
G0 X37.75 Y43.00
G1 Z0.00 F1200
G1 X38.50 Y43.00 F1200
G1 Z5.00 F1200
G0 X39.75 Y43.00
G1 Z0.00 F1200
G1 X40.00 Y43.00 F1200
G1 Z5.00 F1200
G0 X40.75 Y43.00
G1 Z0.00 F1200
G1 X47.25 Y43.00 F1200
G1 Z5.00 F1200
G0 X47.75 Y43.00
G1 Z0.00 F1200
G1 X49.75 Y43.00 F1200
G1 Z5.00 F1200
G0 X50.25 Y43.00
G1 Z0.00 F1200
G1 X50.75 Y43.00 F1200
G1 Z5.00 F1200
G0 X52.25 Y43.00
G1 Z0.00 F1200
G1 X53.75 Y43.00 F1200
G1 Z5.00 F1200
G0 X54.25 Y43.00
G1 Z0.00 F1200
G1 X54.75 Y43.00 F1200
G1 Z5.00 F1200
G0 X55.25 Y43.00
G1 Z0.00 F1200
G1 X56.00 Y43.00 F1200
G1 Z5.00 F1200
G0 X56.50 Y43.00
G1 Z0.00 F1200
G1 X59.00 Y43.00 F1200
G1 Z5.00 F1200
G0 X41.00 Y43.25
G1 Z0.00 F1200
G1 X43.50 Y43.25 F1200
G1 Z5.00 F1200
G0 X44.00 Y43.25
G1 Z0.00 F1200
G1 X44.75 Y43.25 F1200
G1 Z5.00 F1200
G0 X45.25 Y43.25
G1 Z0.00 F1200
G1 X45.50 Y43.25 F1200
G1 Z5.00 F1200
G0 X46.50 Y43.25
G1 Z0.00 F1200
G1 X48.00 Y43.25 F1200
G1 Z5.00 F1200
G0 X49.25 Y43.25
G1 Z0.00 F1200
G1 X50.00 Y43.25 F1200
G1 Z5.00 F1200
G0 X50.25 Y43.25
G1 Z0.00 F1200
G1 X52.25 Y43.25 F1200
G1 Z5.00 F1200
G0 X52.75 Y43.25
G1 Z0.00 F1200
G1 X59.25 Y43.25 F1200
G1 Z5.00 F1200
G0 X60.00 Y43.25
G1 Z0.00 F1200
G1 X60.25 Y43.25 F1200
G1 Z5.00 F1200
G0 X61.25 Y43.25
G1 Z0.00 F1200
G1 X62.25 Y43.25 F1200
G1 Z5.00 F1200
G0 X63.25 Y43.25
G1 Z0.00 F1200
G1 X65.75 Y43.25 F1200
G1 Z5.00 F1200
G0 X66.25 Y43.25
G1 Z0.00 F1200
G1 X68.00 Y43.25 F1200
G1 Z5.00 F1200
G0 X68.25 Y43.25
G1 Z0.00 F1200
G1 X68.50 Y43.25 F1200
G1 Z5.00 F1200
G0 X71.25 Y43.25
G1 Z0.00 F1200
G1 X73.50 Y43.25 F1200
G1 Z5.00 F1200
G0 X76.50 Y43.25
G1 Z0.00 F1200
G1 X76.75 Y43.25 F1200
G1 Z5.00 F1200
G0 X77.00 Y43.25
G1 Z0.00 F1200
G1 X77.50 Y43.25 F1200
G1 Z5.00 F1200
G0 X22.75 Y43.50
G1 Z0.00 F1200
G1 X23.00 Y43.50 F1200
G1 Z5.00 F1200
G0 X23.25 Y43.50
G1 Z0.00 F1200
G1 X23.50 Y43.50 F1200
G1 Z5.00 F1200
G0 X26.25 Y43.50
G1 Z0.00 F1200
G1 X27.25 Y43.50 F1200
G1 Z5.00 F1200
G0 X27.50 Y43.50
G1 Z0.00 F1200
G1 X28.75 Y43.50 F1200
G1 Z5.00 F1200
G0 X31.50 Y43.50
G1 Z0.00 F1200
G1 X31.75 Y43.50 F1200
G1 Z5.00 F1200
G0 X32.00 Y43.50
G1 Z0.00 F1200
G1 X33.75 Y43.50 F1200
G1 Z5.00 F1200
G0 X34.00 Y43.50
G1 Z0.00 F1200
G1 X37.50 Y43.50 F1200
G1 Z5.00 F1200
G0 X38.00 Y43.50
G1 Z0.00 F1200
G1 X39.00 Y43.50 F1200
G1 Z5.00 F1200
G0 X39.75 Y43.50
G1 Z0.00 F1200
G1 X40.00 Y43.50 F1200
G1 Z5.00 F1200
G0 X40.75 Y43.50
G1 Z0.00 F1200
G1 X47.25 Y43.50 F1200
G1 Z5.00 F1200
G0 X47.75 Y43.50
G1 Z0.00 F1200
G1 X49.50 Y43.50 F1200
G1 Z5.00 F1200
G0 X50.00 Y43.50
G1 Z0.00 F1200
G1 X50.75 Y43.50 F1200
G1 Z5.00 F1200
G0 X51.75 Y43.50
G1 Z0.00 F1200
G1 X53.50 Y43.50 F1200
G1 Z5.00 F1200
G0 X54.50 Y43.50
G1 Z0.00 F1200
G1 X55.00 Y43.50 F1200
G1 Z5.00 F1200
G0 X55.25 Y43.50
G1 Z0.00 F1200
G1 X56.00 Y43.50 F1200
G1 Z5.00 F1200
G0 X56.50 Y43.50
G1 Z0.00 F1200
G1 X59.00 Y43.50 F1200
G1 Z5.00 F1200
G0 X41.00 Y43.75
G1 Z0.00 F1200
G1 X43.25 Y43.75 F1200
G1 Z5.00 F1200
G0 X44.00 Y43.75
G1 Z0.00 F1200
G1 X44.50 Y43.75 F1200
G1 Z5.00 F1200
G0 X45.00 Y43.75
G1 Z0.00 F1200
G1 X45.50 Y43.75 F1200
G1 Z5.00 F1200
G0 X46.50 Y43.75
G1 Z0.00 F1200
G1 X46.75 Y43.75 F1200
G1 Z5.00 F1200
G0 X47.25 Y43.75
G1 Z0.00 F1200
G1 X48.25 Y43.75 F1200
G1 Z5.00 F1200
G0 X49.25 Y43.75
G1 Z0.00 F1200
G1 X50.00 Y43.75 F1200
G1 Z5.00 F1200
G0 X50.50 Y43.75
G1 Z0.00 F1200
G1 X52.25 Y43.75 F1200
G1 Z5.00 F1200
G0 X52.75 Y43.75
G1 Z0.00 F1200
G1 X59.25 Y43.75 F1200
G1 Z5.00 F1200
G0 X60.00 Y43.75
G1 Z0.00 F1200
G1 X60.25 Y43.75 F1200
G1 Z5.00 F1200
G0 X61.00 Y43.75
G1 Z0.00 F1200
G1 X61.75 Y43.75 F1200
G1 Z5.00 F1200
G0 X62.00 Y43.75
G1 Z0.00 F1200
G1 X64.50 Y43.75 F1200
G1 Z5.00 F1200
G0 X65.75 Y43.75
G1 Z0.00 F1200
G1 X66.25 Y43.75 F1200
G1 Z5.00 F1200
G0 X66.50 Y43.75
G1 Z0.00 F1200
G1 X68.00 Y43.75 F1200
G1 Z5.00 F1200
G0 X68.25 Y43.75
G1 Z0.00 F1200
G1 X68.50 Y43.75 F1200
G1 Z5.00 F1200
G0 X71.25 Y43.75
G1 Z0.00 F1200
G1 X71.75 Y43.75 F1200
G1 Z5.00 F1200
G0 X72.00 Y43.75
G1 Z0.00 F1200
G1 X72.25 Y43.75 F1200
G1 Z5.00 F1200
G0 X73.00 Y43.75
G1 Z0.00 F1200
G1 X73.25 Y43.75 F1200
G1 Z5.00 F1200
G0 X73.50 Y43.75
G1 Z0.00 F1200
G1 X73.75 Y43.75 F1200
G1 Z5.00 F1200
G0 X76.50 Y43.75
G1 Z0.00 F1200
G1 X76.75 Y43.75 F1200
G1 Z5.00 F1200
G0 X77.00 Y43.75
G1 Z0.00 F1200
G1 X77.25 Y43.75 F1200
G1 Z5.00 F1200
G0 X22.75 Y44.00
G1 Z0.00 F1200
G1 X23.00 Y44.00 F1200
G1 Z5.00 F1200
G0 X23.25 Y44.00
G1 Z0.00 F1200
G1 X23.50 Y44.00 F1200
G1 Z5.00 F1200
G0 X26.75 Y44.00
G1 Z0.00 F1200
G1 X27.00 Y44.00 F1200
G1 Z5.00 F1200
G0 X27.75 Y44.00
G1 Z0.00 F1200
G1 X28.00 Y44.00 F1200
G1 Z5.00 F1200
G0 X28.25 Y44.00
G1 Z0.00 F1200
G1 X28.75 Y44.00 F1200
G1 Z5.00 F1200
G0 X29.50 Y44.00
G1 Z0.00 F1200
G1 X30.25 Y44.00 F1200
G1 Z5.00 F1200
G0 X31.50 Y44.00
G1 Z0.00 F1200
G1 X31.75 Y44.00 F1200
G1 Z5.00 F1200
G0 X32.00 Y44.00
G1 Z0.00 F1200
G1 X34.25 Y44.00 F1200
G1 Z5.00 F1200
G0 X35.75 Y44.00
G1 Z0.00 F1200
G1 X36.00 Y44.00 F1200
G1 Z5.00 F1200
G0 X36.50 Y44.00
G1 Z0.00 F1200
G1 X38.25 Y44.00 F1200
G1 Z5.00 F1200
G0 X38.75 Y44.00
G1 Z0.00 F1200
G1 X39.25 Y44.00 F1200
G1 Z5.00 F1200
G0 X39.75 Y44.00
G1 Z0.00 F1200
G1 X40.00 Y44.00 F1200
G1 Z5.00 F1200
G0 X40.75 Y44.00
G1 Z0.00 F1200
G1 X47.25 Y44.00 F1200
G1 Z5.00 F1200
G0 X47.75 Y44.00
G1 Z0.00 F1200
G1 X49.50 Y44.00 F1200
G1 Z5.00 F1200
G0 X49.75 Y44.00
G1 Z0.00 F1200
G1 X50.75 Y44.00 F1200
G1 Z5.00 F1200
G0 X51.75 Y44.00
G1 Z0.00 F1200
G1 X52.50 Y44.00 F1200
G1 Z5.00 F1200
G0 X54.75 Y44.00
G1 Z0.00 F1200
G1 X55.00 Y44.00 F1200
G1 Z5.00 F1200
G0 X55.50 Y44.00
G1 Z0.00 F1200
G1 X56.00 Y44.00 F1200
G1 Z5.00 F1200
G0 X56.75 Y44.00
G1 Z0.00 F1200
G1 X59.00 Y44.00 F1200
G1 Z5.00 F1200
G0 X41.00 Y44.25
G1 Z0.00 F1200
G1 X43.25 Y44.25 F1200
G1 Z5.00 F1200
G0 X44.00 Y44.25
G1 Z0.00 F1200
G1 X44.50 Y44.25 F1200
G1 Z5.00 F1200
G0 X45.00 Y44.25
G1 Z0.00 F1200
G1 X45.25 Y44.25 F1200
G1 Z5.00 F1200
G0 X47.25 Y44.25
G1 Z0.00 F1200
G1 X48.50 Y44.25 F1200
G1 Z5.00 F1200
G0 X49.25 Y44.25
G1 Z0.00 F1200
G1 X50.25 Y44.25 F1200
G1 Z5.00 F1200
G0 X50.50 Y44.25
G1 Z0.00 F1200
G1 X52.25 Y44.25 F1200
G1 Z5.00 F1200
G0 X52.75 Y44.25
G1 Z0.00 F1200
G1 X58.50 Y44.25 F1200
G1 Z5.00 F1200
G0 X58.75 Y44.25
G1 Z0.00 F1200
G1 X59.25 Y44.25 F1200
G1 Z5.00 F1200
G0 X60.00 Y44.25
G1 Z0.00 F1200
G1 X60.25 Y44.25 F1200
G1 Z5.00 F1200
G0 X60.75 Y44.25
G1 Z0.00 F1200
G1 X61.00 Y44.25 F1200
G1 Z5.00 F1200
G0 X61.25 Y44.25
G1 Z0.00 F1200
G1 X63.50 Y44.25 F1200
G1 Z5.00 F1200
G0 X64.00 Y44.25
G1 Z0.00 F1200
G1 X64.25 Y44.25 F1200
G1 Z5.00 F1200
G0 X66.25 Y44.25
G1 Z0.00 F1200
G1 X67.75 Y44.25 F1200
G1 Z5.00 F1200
G0 X68.25 Y44.25
G1 Z0.00 F1200
G1 X68.50 Y44.25 F1200
G1 Z5.00 F1200
G0 X69.50 Y44.25
G1 Z0.00 F1200
G1 X70.75 Y44.25 F1200
G1 Z5.00 F1200
G0 X71.00 Y44.25
G1 Z0.00 F1200
G1 X72.25 Y44.25 F1200
G1 Z5.00 F1200
G0 X76.25 Y44.25
G1 Z0.00 F1200
G1 X76.50 Y44.25 F1200
G1 Z5.00 F1200
G0 X77.00 Y44.25
G1 Z0.00 F1200
G1 X77.25 Y44.25 F1200
G1 Z5.00 F1200
G0 X22.75 Y44.50
G1 Z0.00 F1200
G1 X23.00 Y44.50 F1200
G1 Z5.00 F1200
G0 X23.50 Y44.50
G1 Z0.00 F1200
G1 X23.75 Y44.50 F1200
G1 Z5.00 F1200
G0 X27.00 Y44.50
G1 Z0.00 F1200
G1 X27.25 Y44.50 F1200
G1 Z5.00 F1200
G0 X27.75 Y44.50
G1 Z0.00 F1200
G1 X28.25 Y44.50 F1200
G1 Z5.00 F1200
G0 X28.50 Y44.50
G1 Z0.00 F1200
G1 X29.00 Y44.50 F1200
G1 Z5.00 F1200
G0 X29.25 Y44.50
G1 Z0.00 F1200
G1 X29.50 Y44.50 F1200
G1 Z5.00 F1200
G0 X30.25 Y44.50
G1 Z0.00 F1200
G1 X30.75 Y44.50 F1200
G1 Z5.00 F1200
G0 X31.50 Y44.50
G1 Z0.00 F1200
G1 X32.00 Y44.50 F1200
G1 Z5.00 F1200
G0 X32.25 Y44.50
G1 Z0.00 F1200
G1 X33.25 Y44.50 F1200
G1 Z5.00 F1200
G0 X35.75 Y44.50
G1 Z0.00 F1200
G1 X36.25 Y44.50 F1200
G1 Z5.00 F1200
G0 X36.50 Y44.50
G1 Z0.00 F1200
G1 X37.75 Y44.50 F1200
G1 Z5.00 F1200
G0 X38.00 Y44.50
G1 Z0.00 F1200
G1 X39.00 Y44.50 F1200
G1 Z5.00 F1200
G0 X39.75 Y44.50
G1 Z0.00 F1200
G1 X40.00 Y44.50 F1200
G1 Z5.00 F1200
G0 X40.75 Y44.50
G1 Z0.00 F1200
G1 X41.25 Y44.50 F1200
G1 Z5.00 F1200
G0 X41.75 Y44.50
G1 Z0.00 F1200
G1 X47.25 Y44.50 F1200
G1 Z5.00 F1200
G0 X47.75 Y44.50
G1 Z0.00 F1200
G1 X49.50 Y44.50 F1200
G1 Z5.00 F1200
G0 X49.75 Y44.50
G1 Z0.00 F1200
G1 X51.00 Y44.50 F1200
G1 Z5.00 F1200
G0 X51.50 Y44.50
G1 Z0.00 F1200
G1 X53.00 Y44.50 F1200
G1 Z5.00 F1200
G0 X54.75 Y44.50
G1 Z0.00 F1200
G1 X55.25 Y44.50 F1200
G1 Z5.00 F1200
G0 X55.50 Y44.50
G1 Z0.00 F1200
G1 X56.00 Y44.50 F1200
G1 Z5.00 F1200
G0 X56.75 Y44.50
G1 Z0.00 F1200
G1 X59.00 Y44.50 F1200
G1 Z5.00 F1200
G0 X41.00 Y44.75
G1 Z0.00 F1200
G1 X43.25 Y44.75 F1200
G1 Z5.00 F1200
G0 X44.00 Y44.75
G1 Z0.00 F1200
G1 X44.50 Y44.75 F1200
G1 Z5.00 F1200
G0 X44.75 Y44.75
G1 Z0.00 F1200
G1 X45.25 Y44.75 F1200
G1 Z5.00 F1200
G0 X46.75 Y44.75
G1 Z0.00 F1200
G1 X48.50 Y44.75 F1200
G1 Z5.00 F1200
G0 X49.00 Y44.75
G1 Z0.00 F1200
G1 X50.25 Y44.75 F1200
G1 Z5.00 F1200
G0 X50.50 Y44.75
G1 Z0.00 F1200
G1 X52.25 Y44.75 F1200
G1 Z5.00 F1200
G0 X52.75 Y44.75
G1 Z0.00 F1200
G1 X56.00 Y44.75 F1200
G1 Z5.00 F1200
G0 X56.50 Y44.75
G1 Z0.00 F1200
G1 X58.25 Y44.75 F1200
G1 Z5.00 F1200
G0 X58.75 Y44.75
G1 Z0.00 F1200
G1 X59.25 Y44.75 F1200
G1 Z5.00 F1200
G0 X60.00 Y44.75
G1 Z0.00 F1200
G1 X60.25 Y44.75 F1200
G1 Z5.00 F1200
G0 X60.75 Y44.75
G1 Z0.00 F1200
G1 X61.25 Y44.75 F1200
G1 Z5.00 F1200
G0 X61.50 Y44.75
G1 Z0.00 F1200
G1 X62.00 Y44.75 F1200
G1 Z5.00 F1200
G0 X62.50 Y44.75
G1 Z0.00 F1200
G1 X63.50 Y44.75 F1200
G1 Z5.00 F1200
G0 X63.75 Y44.75
G1 Z0.00 F1200
G1 X64.25 Y44.75 F1200
G1 Z5.00 F1200
G0 X66.75 Y44.75
G1 Z0.00 F1200
G1 X67.75 Y44.75 F1200
G1 Z5.00 F1200
G0 X68.00 Y44.75
G1 Z0.00 F1200
G1 X68.25 Y44.75 F1200
G1 Z5.00 F1200
G0 X69.00 Y44.75
G1 Z0.00 F1200
G1 X69.50 Y44.75 F1200
G1 Z5.00 F1200
G0 X70.50 Y44.75
G1 Z0.00 F1200
G1 X71.00 Y44.75 F1200
G1 Z5.00 F1200
G0 X71.75 Y44.75
G1 Z0.00 F1200
G1 X72.00 Y44.75 F1200
G1 Z5.00 F1200
G0 X72.75 Y44.75
G1 Z0.00 F1200
G1 X73.00 Y44.75 F1200
G1 Z5.00 F1200
G0 X76.25 Y44.75
G1 Z0.00 F1200
G1 X76.50 Y44.75 F1200
G1 Z5.00 F1200
G0 X76.75 Y44.75
G1 Z0.00 F1200
G1 X77.25 Y44.75 F1200
G1 Z5.00 F1200
G0 X23.00 Y45.00
G1 Z0.00 F1200
G1 X23.25 Y45.00 F1200
G1 Z5.00 F1200
G0 X23.50 Y45.00
G1 Z0.00 F1200
G1 X23.75 Y45.00 F1200
G1 Z5.00 F1200
G0 X27.00 Y45.00
G1 Z0.00 F1200
G1 X27.25 Y45.00 F1200
G1 Z5.00 F1200
G0 X28.00 Y45.00
G1 Z0.00 F1200
G1 X29.25 Y45.00 F1200
G1 Z5.00 F1200
G0 X30.50 Y45.00
G1 Z0.00 F1200
G1 X31.00 Y45.00 F1200
G1 Z5.00 F1200
G0 X31.75 Y45.00
G1 Z0.00 F1200
G1 X32.00 Y45.00 F1200
G1 Z5.00 F1200
G0 X32.25 Y45.00
G1 Z0.00 F1200
G1 X33.50 Y45.00 F1200
G1 Z5.00 F1200
G0 X36.00 Y45.00
G1 Z0.00 F1200
G1 X36.25 Y45.00 F1200
G1 Z5.00 F1200
G0 X37.00 Y45.00
G1 Z0.00 F1200
G1 X37.25 Y45.00 F1200
G1 Z5.00 F1200
G0 X38.00 Y45.00
G1 Z0.00 F1200
G1 X38.50 Y45.00 F1200
G1 Z5.00 F1200
G0 X39.00 Y45.00
G1 Z0.00 F1200
G1 X39.50 Y45.00 F1200
G1 Z5.00 F1200
G0 X39.75 Y45.00
G1 Z0.00 F1200
G1 X40.00 Y45.00 F1200
G1 Z5.00 F1200
G0 X40.75 Y45.00
G1 Z0.00 F1200
G1 X41.25 Y45.00 F1200
G1 Z5.00 F1200
G0 X42.00 Y45.00
G1 Z0.00 F1200
G1 X43.25 Y45.00 F1200
G1 Z5.00 F1200
G0 X44.25 Y45.00
G1 Z0.00 F1200
G1 X47.25 Y45.00 F1200
G1 Z5.00 F1200
G0 X47.75 Y45.00
G1 Z0.00 F1200
G1 X49.25 Y45.00 F1200
G1 Z5.00 F1200
G0 X49.75 Y45.00
G1 Z0.00 F1200
G1 X51.00 Y45.00 F1200
G1 Z5.00 F1200
G0 X51.50 Y45.00
G1 Z0.00 F1200
G1 X53.50 Y45.00 F1200
G1 Z5.00 F1200
G0 X54.75 Y45.00
G1 Z0.00 F1200
G1 X55.25 Y45.00 F1200
G1 Z5.00 F1200
G0 X55.50 Y45.00
G1 Z0.00 F1200
G1 X56.00 Y45.00 F1200
G1 Z5.00 F1200
G0 X56.50 Y45.00
G1 Z0.00 F1200
G1 X58.75 Y45.00 F1200
G1 Z5.00 F1200
G0 X41.25 Y45.25
G1 Z0.00 F1200
G1 X43.50 Y45.25 F1200
G1 Z5.00 F1200
G0 X44.25 Y45.25
G1 Z0.00 F1200
G1 X45.25 Y45.25 F1200
G1 Z5.00 F1200
G0 X46.50 Y45.25
G1 Z0.00 F1200
G1 X48.50 Y45.25 F1200
G1 Z5.00 F1200
G0 X48.75 Y45.25
G1 Z0.00 F1200
G1 X50.50 Y45.25 F1200
G1 Z5.00 F1200
G0 X50.75 Y45.25
G1 Z0.00 F1200
G1 X52.25 Y45.25 F1200
G1 Z5.00 F1200
G0 X52.75 Y45.25
G1 Z0.00 F1200
G1 X55.50 Y45.25 F1200
G1 Z5.00 F1200
G0 X57.00 Y45.25
G1 Z0.00 F1200
G1 X58.00 Y45.25 F1200
G1 Z5.00 F1200
G0 X58.75 Y45.25
G1 Z0.00 F1200
G1 X59.50 Y45.25 F1200
G1 Z5.00 F1200
G0 X60.00 Y45.25
G1 Z0.00 F1200
G1 X60.25 Y45.25 F1200
G1 Z5.00 F1200
G0 X61.75 Y45.25
G1 Z0.00 F1200
G1 X62.25 Y45.25 F1200
G1 Z5.00 F1200
G0 X63.50 Y45.25
G1 Z0.00 F1200
G1 X64.00 Y45.25 F1200
G1 Z5.00 F1200
G0 X65.50 Y45.25
G1 Z0.00 F1200
G1 X65.75 Y45.25 F1200
G1 Z5.00 F1200
G0 X66.50 Y45.25
G1 Z0.00 F1200
G1 X67.50 Y45.25 F1200
G1 Z5.00 F1200
G0 X68.00 Y45.25
G1 Z0.00 F1200
G1 X68.25 Y45.25 F1200
G1 Z5.00 F1200
G0 X69.00 Y45.25
G1 Z0.00 F1200
G1 X69.50 Y45.25 F1200
G1 Z5.00 F1200
G0 X71.00 Y45.25
G1 Z0.00 F1200
G1 X71.75 Y45.25 F1200
G1 Z5.00 F1200
G0 X72.50 Y45.25
G1 Z0.00 F1200
G1 X73.00 Y45.25 F1200
G1 Z5.00 F1200
G0 X76.25 Y45.25
G1 Z0.00 F1200
G1 X76.50 Y45.25 F1200
G1 Z5.00 F1200
G0 X76.75 Y45.25
G1 Z0.00 F1200
G1 X77.00 Y45.25 F1200
G1 Z5.00 F1200
G0 X23.00 Y45.50
G1 Z0.00 F1200
G1 X23.25 Y45.50 F1200
G1 Z5.00 F1200
G0 X23.50 Y45.50
G1 Z0.00 F1200
G1 X24.00 Y45.50 F1200
G1 Z5.00 F1200
G0 X27.00 Y45.50
G1 Z0.00 F1200
G1 X27.75 Y45.50 F1200
G1 Z5.00 F1200
G0 X28.50 Y45.50
G1 Z0.00 F1200
G1 X29.00 Y45.50 F1200
G1 Z5.00 F1200
G0 X30.50 Y45.50
G1 Z0.00 F1200
G1 X31.25 Y45.50 F1200
G1 Z5.00 F1200
G0 X31.75 Y45.50
G1 Z0.00 F1200
G1 X32.00 Y45.50 F1200
G1 Z5.00 F1200
G0 X32.50 Y45.50
G1 Z0.00 F1200
G1 X33.50 Y45.50 F1200
G1 Z5.00 F1200
G0 X34.25 Y45.50
G1 Z0.00 F1200
G1 X34.50 Y45.50 F1200
G1 Z5.00 F1200
G0 X36.25 Y45.50
G1 Z0.00 F1200
G1 X36.75 Y45.50 F1200
G1 Z5.00 F1200
G0 X37.50 Y45.50
G1 Z0.00 F1200
G1 X38.00 Y45.50 F1200
G1 Z5.00 F1200
G0 X39.75 Y45.50
G1 Z0.00 F1200
G1 X40.00 Y45.50 F1200
G1 Z5.00 F1200
G0 X40.50 Y45.50
G1 Z0.00 F1200
G1 X41.25 Y45.50 F1200
G1 Z5.00 F1200
G0 X42.00 Y45.50
G1 Z0.00 F1200
G1 X43.00 Y45.50 F1200
G1 Z5.00 F1200
G0 X44.50 Y45.50
G1 Z0.00 F1200
G1 X47.25 Y45.50 F1200
G1 Z5.00 F1200
G0 X47.50 Y45.50
G1 Z0.00 F1200
G1 X49.25 Y45.50 F1200
G1 Z5.00 F1200
G0 X49.50 Y45.50
G1 Z0.00 F1200
G1 X51.50 Y45.50 F1200
G1 Z5.00 F1200
G0 X52.75 Y45.50
G1 Z0.00 F1200
G1 X53.75 Y45.50 F1200
G1 Z5.00 F1200
G0 X54.75 Y45.50
G1 Z0.00 F1200
G1 X55.75 Y45.50 F1200
G1 Z5.00 F1200
G0 X56.50 Y45.50
G1 Z0.00 F1200
G1 X58.75 Y45.50 F1200
G1 Z5.00 F1200
G0 X41.25 Y45.75
G1 Z0.00 F1200
G1 X43.50 Y45.75 F1200
G1 Z5.00 F1200
G0 X44.25 Y45.75
G1 Z0.00 F1200
G1 X45.25 Y45.75 F1200
G1 Z5.00 F1200
G0 X46.25 Y45.75
G1 Z0.00 F1200
G1 X47.00 Y45.75 F1200
G1 Z5.00 F1200
G0 X48.75 Y45.75
G1 Z0.00 F1200
G1 X49.00 Y45.75 F1200
G1 Z5.00 F1200
G0 X49.25 Y45.75
G1 Z0.00 F1200
G1 X50.50 Y45.75 F1200
G1 Z5.00 F1200
G0 X50.75 Y45.75
G1 Z0.00 F1200
G1 X52.25 Y45.75 F1200
G1 Z5.00 F1200
G0 X52.75 Y45.75
G1 Z0.00 F1200
G1 X55.25 Y45.75 F1200
G1 Z5.00 F1200
G0 X57.00 Y45.75
G1 Z0.00 F1200
G1 X58.00 Y45.75 F1200
G1 Z5.00 F1200
G0 X58.75 Y45.75
G1 Z0.00 F1200
G1 X59.50 Y45.75 F1200
G1 Z5.00 F1200
G0 X60.00 Y45.75
G1 Z0.00 F1200
G1 X60.25 Y45.75 F1200
G1 Z5.00 F1200
G0 X61.50 Y45.75
G1 Z0.00 F1200
G1 X61.75 Y45.75 F1200
G1 Z5.00 F1200
G0 X62.25 Y45.75
G1 Z0.00 F1200
G1 X63.50 Y45.75 F1200
G1 Z5.00 F1200
G0 X65.25 Y45.75
G1 Z0.00 F1200
G1 X65.75 Y45.75 F1200
G1 Z5.00 F1200
G0 X66.50 Y45.75
G1 Z0.00 F1200
G1 X67.25 Y45.75 F1200
G1 Z5.00 F1200
G0 X68.00 Y45.75
G1 Z0.00 F1200
G1 X68.25 Y45.75 F1200
G1 Z5.00 F1200
G0 X68.75 Y45.75
G1 Z0.00 F1200
G1 X69.50 Y45.75 F1200
G1 Z5.00 F1200
G0 X71.25 Y45.75
G1 Z0.00 F1200
G1 X71.50 Y45.75 F1200
G1 Z5.00 F1200
G0 X72.00 Y45.75
G1 Z0.00 F1200
G1 X73.00 Y45.75 F1200
G1 Z5.00 F1200
G0 X76.00 Y45.75
G1 Z0.00 F1200
G1 X76.25 Y45.75 F1200
G1 Z5.00 F1200
G0 X76.75 Y45.75
G1 Z0.00 F1200
G1 X77.00 Y45.75 F1200
G1 Z5.00 F1200
G0 X23.00 Y46.00
G1 Z0.00 F1200
G1 X23.50 Y46.00 F1200
G1 Z5.00 F1200
G0 X23.75 Y46.00
G1 Z0.00 F1200
G1 X24.00 Y46.00 F1200
G1 Z5.00 F1200
G0 X27.00 Y46.00
G1 Z0.00 F1200
G1 X27.50 Y46.00 F1200
G1 Z5.00 F1200
G0 X27.75 Y46.00
G1 Z0.00 F1200
G1 X28.50 Y46.00 F1200
G1 Z5.00 F1200
G0 X30.50 Y46.00
G1 Z0.00 F1200
G1 X31.25 Y46.00 F1200
G1 Z5.00 F1200
G0 X32.00 Y46.00
G1 Z0.00 F1200
G1 X32.25 Y46.00 F1200
G1 Z5.00 F1200
G0 X33.00 Y46.00
G1 Z0.00 F1200
G1 X33.50 Y46.00 F1200
G1 Z5.00 F1200
G0 X34.50 Y46.00
G1 Z0.00 F1200
G1 X34.75 Y46.00 F1200
G1 Z5.00 F1200
G0 X37.00 Y46.00
G1 Z0.00 F1200
G1 X37.50 Y46.00 F1200
G1 Z5.00 F1200
G0 X38.00 Y46.00
G1 Z0.00 F1200
G1 X38.25 Y46.00 F1200
G1 Z5.00 F1200
G0 X39.75 Y46.00
G1 Z0.00 F1200
G1 X40.00 Y46.00 F1200
G1 Z5.00 F1200
G0 X40.50 Y46.00
G1 Z0.00 F1200
G1 X41.25 Y46.00 F1200
G1 Z5.00 F1200
G0 X41.75 Y46.00
G1 Z0.00 F1200
G1 X43.00 Y46.00 F1200
G1 Z5.00 F1200
G0 X44.75 Y46.00
G1 Z0.00 F1200
G1 X47.25 Y46.00 F1200
G1 Z5.00 F1200
G0 X49.50 Y46.00
G1 Z0.00 F1200
G1 X50.75 Y46.00 F1200
G1 Z5.00 F1200
G0 X51.00 Y46.00
G1 Z0.00 F1200
G1 X51.25 Y46.00 F1200
G1 Z5.00 F1200
G0 X53.25 Y46.00
G1 Z0.00 F1200
G1 X54.00 Y46.00 F1200
G1 Z5.00 F1200
G0 X54.75 Y46.00
G1 Z0.00 F1200
G1 X55.50 Y46.00 F1200
G1 Z5.00 F1200
G0 X56.50 Y46.00
G1 Z0.00 F1200
G1 X58.50 Y46.00 F1200
G1 Z5.00 F1200
G0 X41.50 Y46.25
G1 Z0.00 F1200
G1 X43.75 Y46.25 F1200
G1 Z5.00 F1200
G0 X44.50 Y46.25
G1 Z0.00 F1200
G1 X45.25 Y46.25 F1200
G1 Z5.00 F1200
G0 X46.00 Y46.25
G1 Z0.00 F1200
G1 X46.50 Y46.25 F1200
G1 Z5.00 F1200
G0 X47.00 Y46.25
G1 Z0.00 F1200
G1 X47.25 Y46.25 F1200
G1 Z5.00 F1200
G0 X48.50 Y46.25
G1 Z0.00 F1200
G1 X48.75 Y46.25 F1200
G1 Z5.00 F1200
G0 X49.25 Y46.25
G1 Z0.00 F1200
G1 X50.50 Y46.25 F1200
G1 Z5.00 F1200
G0 X52.00 Y46.25
G1 Z0.00 F1200
G1 X52.25 Y46.25 F1200
G1 Z5.00 F1200
G0 X52.75 Y46.25
G1 Z0.00 F1200
G1 X55.25 Y46.25 F1200
G1 Z5.00 F1200
G0 X57.00 Y46.25
G1 Z0.00 F1200
G1 X58.25 Y46.25 F1200
G1 Z5.00 F1200
G0 X58.75 Y46.25
G1 Z0.00 F1200
G1 X59.50 Y46.25 F1200
G1 Z5.00 F1200
G0 X60.00 Y46.25
G1 Z0.00 F1200
G1 X60.25 Y46.25 F1200
G1 Z5.00 F1200
G0 X62.00 Y46.25
G1 Z0.00 F1200
G1 X62.25 Y46.25 F1200
G1 Z5.00 F1200
G0 X65.00 Y46.25
G1 Z0.00 F1200
G1 X65.50 Y46.25 F1200
G1 Z5.00 F1200
G0 X66.25 Y46.25
G1 Z0.00 F1200
G1 X67.00 Y46.25 F1200
G1 Z5.00 F1200
G0 X67.75 Y46.25
G1 Z0.00 F1200
G1 X68.00 Y46.25 F1200
G1 Z5.00 F1200
G0 X68.75 Y46.25
G1 Z0.00 F1200
G1 X69.50 Y46.25 F1200
G1 Z5.00 F1200
G0 X71.50 Y46.25
G1 Z0.00 F1200
G1 X72.00 Y46.25 F1200
G1 Z5.00 F1200
G0 X72.50 Y46.25
G1 Z0.00 F1200
G1 X73.00 Y46.25 F1200
G1 Z5.00 F1200
G0 X76.00 Y46.25
G1 Z0.00 F1200
G1 X76.25 Y46.25 F1200
G1 Z5.00 F1200
G0 X76.50 Y46.25
G1 Z0.00 F1200
G1 X76.75 Y46.25 F1200
G1 Z5.00 F1200
G0 X23.25 Y46.50
G1 Z0.00 F1200
G1 X23.50 Y46.50 F1200
G1 Z5.00 F1200
G0 X23.75 Y46.50
G1 Z0.00 F1200
G1 X24.00 Y46.50 F1200
G1 Z5.00 F1200
G0 X26.75 Y46.50
G1 Z0.00 F1200
G1 X27.25 Y46.50 F1200
G1 Z5.00 F1200
G0 X27.50 Y46.50
G1 Z0.00 F1200
G1 X27.75 Y46.50 F1200
G1 Z5.00 F1200
G0 X28.00 Y46.50
G1 Z0.00 F1200
G1 X28.25 Y46.50 F1200
G1 Z5.00 F1200
G0 X30.50 Y46.50
G1 Z0.00 F1200
G1 X31.50 Y46.50 F1200
G1 Z5.00 F1200
G0 X32.00 Y46.50
G1 Z0.00 F1200
G1 X32.25 Y46.50 F1200
G1 Z5.00 F1200
G0 X33.25 Y46.50
G1 Z0.00 F1200
G1 X33.75 Y46.50 F1200
G1 Z5.00 F1200
G0 X34.00 Y46.50
G1 Z0.00 F1200
G1 X34.50 Y46.50 F1200
G1 Z5.00 F1200
G0 X34.75 Y46.50
G1 Z0.00 F1200
G1 X35.25 Y46.50 F1200
G1 Z5.00 F1200
G0 X37.25 Y46.50
G1 Z0.00 F1200
G1 X38.00 Y46.50 F1200
G1 Z5.00 F1200
G0 X39.75 Y46.50
G1 Z0.00 F1200
G1 X40.00 Y46.50 F1200
G1 Z5.00 F1200
G0 X40.50 Y46.50
G1 Z0.00 F1200
G1 X41.25 Y46.50 F1200
G1 Z5.00 F1200
G0 X41.75 Y46.50
G1 Z0.00 F1200
G1 X42.75 Y46.50 F1200
G1 Z5.00 F1200
G0 X45.00 Y46.50
G1 Z0.00 F1200
G1 X47.25 Y46.50 F1200
G1 Z5.00 F1200
G0 X48.50 Y46.50
G1 Z0.00 F1200
G1 X50.75 Y46.50 F1200
G1 Z5.00 F1200
G0 X51.25 Y46.50
G1 Z0.00 F1200
G1 X51.50 Y46.50 F1200
G1 Z5.00 F1200
G0 X53.50 Y46.50
G1 Z0.00 F1200
G1 X54.00 Y46.50 F1200
G1 Z5.00 F1200
G0 X54.75 Y46.50
G1 Z0.00 F1200
G1 X55.50 Y46.50 F1200
G1 Z5.00 F1200
G0 X56.25 Y46.50
G1 Z0.00 F1200
G1 X58.50 Y46.50 F1200
G1 Z5.00 F1200
G0 X41.75 Y46.75
G1 Z0.00 F1200
G1 X44.00 Y46.75 F1200
G1 Z5.00 F1200
G0 X44.75 Y46.75
G1 Z0.00 F1200
G1 X45.25 Y46.75 F1200
G1 Z5.00 F1200
G0 X46.00 Y46.75
G1 Z0.00 F1200
G1 X46.50 Y46.75 F1200
G1 Z5.00 F1200
G0 X48.50 Y46.75
G1 Z0.00 F1200
G1 X48.75 Y46.75 F1200
G1 Z5.00 F1200
G0 X49.25 Y46.75
G1 Z0.00 F1200
G1 X55.00 Y46.75 F1200
G1 Z5.00 F1200
G0 X57.25 Y46.75
G1 Z0.00 F1200
G1 X58.25 Y46.75 F1200
G1 Z5.00 F1200
G0 X58.75 Y46.75
G1 Z0.00 F1200
G1 X59.50 Y46.75 F1200
G1 Z5.00 F1200
G0 X60.00 Y46.75
G1 Z0.00 F1200
G1 X60.25 Y46.75 F1200
G1 Z5.00 F1200
G0 X62.50 Y46.75
G1 Z0.00 F1200
G1 X63.50 Y46.75 F1200
G1 Z5.00 F1200
G0 X64.00 Y46.75
G1 Z0.00 F1200
G1 X65.00 Y46.75 F1200
G1 Z5.00 F1200
G0 X65.50 Y46.75
G1 Z0.00 F1200
G1 X65.75 Y46.75 F1200
G1 Z5.00 F1200
G0 X66.25 Y46.75
G1 Z0.00 F1200
G1 X66.75 Y46.75 F1200
G1 Z5.00 F1200
G0 X67.75 Y46.75
G1 Z0.00 F1200
G1 X68.00 Y46.75 F1200
G1 Z5.00 F1200
G0 X68.50 Y46.75
G1 Z0.00 F1200
G1 X69.75 Y46.75 F1200
G1 Z5.00 F1200
G0 X71.75 Y46.75
G1 Z0.00 F1200
G1 X72.50 Y46.75 F1200
G1 Z5.00 F1200
G0 X72.75 Y46.75
G1 Z0.00 F1200
G1 X73.25 Y46.75 F1200
G1 Z5.00 F1200
G0 X75.75 Y46.75
G1 Z0.00 F1200
G1 X76.00 Y46.75 F1200
G1 Z5.00 F1200
G0 X76.50 Y46.75
G1 Z0.00 F1200
G1 X76.75 Y46.75 F1200
G1 Z5.00 F1200
G0 X23.25 Y47.00
G1 Z0.00 F1200
G1 X23.75 Y47.00 F1200
G1 Z5.00 F1200
G0 X24.00 Y47.00
G1 Z0.00 F1200
G1 X24.25 Y47.00 F1200
G1 Z5.00 F1200
G0 X26.75 Y47.00
G1 Z0.00 F1200
G1 X27.25 Y47.00 F1200
G1 Z5.00 F1200
G0 X27.75 Y47.00
G1 Z0.00 F1200
G1 X28.00 Y47.00 F1200
G1 Z5.00 F1200
G0 X30.25 Y47.00
G1 Z0.00 F1200
G1 X31.50 Y47.00 F1200
G1 Z5.00 F1200
G0 X32.00 Y47.00
G1 Z0.00 F1200
G1 X32.50 Y47.00 F1200
G1 Z5.00 F1200
G0 X33.25 Y47.00
G1 Z0.00 F1200
G1 X34.00 Y47.00 F1200
G1 Z5.00 F1200
G0 X34.25 Y47.00
G1 Z0.00 F1200
G1 X34.75 Y47.00 F1200
G1 Z5.00 F1200
G0 X35.25 Y47.00
G1 Z0.00 F1200
G1 X37.00 Y47.00 F1200
G1 Z5.00 F1200
G0 X39.75 Y47.00
G1 Z0.00 F1200
G1 X40.00 Y47.00 F1200
G1 Z5.00 F1200
G0 X40.50 Y47.00
G1 Z0.00 F1200
G1 X41.00 Y47.00 F1200
G1 Z5.00 F1200
G0 X41.75 Y47.00
G1 Z0.00 F1200
G1 X42.75 Y47.00 F1200
G1 Z5.00 F1200
G0 X45.00 Y47.00
G1 Z0.00 F1200
G1 X50.75 Y47.00 F1200
G1 Z5.00 F1200
G0 X51.25 Y47.00
G1 Z0.00 F1200
G1 X51.50 Y47.00 F1200
G1 Z5.00 F1200
G0 X53.50 Y47.00
G1 Z0.00 F1200
G1 X54.00 Y47.00 F1200
G1 Z5.00 F1200
G0 X54.50 Y47.00
G1 Z0.00 F1200
G1 X55.25 Y47.00 F1200
G1 Z5.00 F1200
G0 X56.00 Y47.00
G1 Z0.00 F1200
G1 X58.25 Y47.00 F1200
G1 Z5.00 F1200
G0 X42.00 Y47.25
G1 Z0.00 F1200
G1 X44.25 Y47.25 F1200
G1 Z5.00 F1200
G0 X45.00 Y47.25
G1 Z0.00 F1200
G1 X45.50 Y47.25 F1200
G1 Z5.00 F1200
G0 X46.00 Y47.25
G1 Z0.00 F1200
G1 X46.50 Y47.25 F1200
G1 Z5.00 F1200
G0 X48.50 Y47.25
G1 Z0.00 F1200
G1 X48.75 Y47.25 F1200
G1 Z5.00 F1200
G0 X49.50 Y47.25
G1 Z0.00 F1200
G1 X55.00 Y47.25 F1200
G1 Z5.00 F1200
G0 X57.25 Y47.25
G1 Z0.00 F1200
G1 X58.25 Y47.25 F1200
G1 Z5.00 F1200
G0 X59.00 Y47.25
G1 Z0.00 F1200
G1 X59.50 Y47.25 F1200
G1 Z5.00 F1200
G0 X60.00 Y47.25
G1 Z0.00 F1200
G1 X60.25 Y47.25 F1200
G1 Z5.00 F1200
G0 X65.00 Y47.25
G1 Z0.00 F1200
G1 X65.50 Y47.25 F1200
G1 Z5.00 F1200
G0 X66.00 Y47.25
G1 Z0.00 F1200
G1 X66.75 Y47.25 F1200
G1 Z5.00 F1200
G0 X67.50 Y47.25
G1 Z0.00 F1200
G1 X67.75 Y47.25 F1200
G1 Z5.00 F1200
G0 X68.25 Y47.25
G1 Z0.00 F1200
G1 X69.75 Y47.25 F1200
G1 Z5.00 F1200
G0 X72.00 Y47.25
G1 Z0.00 F1200
G1 X72.50 Y47.25 F1200
G1 Z5.00 F1200
G0 X72.75 Y47.25
G1 Z0.00 F1200
G1 X73.25 Y47.25 F1200
G1 Z5.00 F1200
G0 X75.75 Y47.25
G1 Z0.00 F1200
G1 X76.00 Y47.25 F1200
G1 Z5.00 F1200
G0 X76.25 Y47.25
G1 Z0.00 F1200
G1 X76.50 Y47.25 F1200
G1 Z5.00 F1200
G0 X23.50 Y47.50
G1 Z0.00 F1200
G1 X23.75 Y47.50 F1200
G1 Z5.00 F1200
G0 X24.00 Y47.50
G1 Z0.00 F1200
G1 X24.50 Y47.50 F1200
G1 Z5.00 F1200
G0 X26.75 Y47.50
G1 Z0.00 F1200
G1 X27.25 Y47.50 F1200
G1 Z5.00 F1200
G0 X27.50 Y47.50
G1 Z0.00 F1200
G1 X28.00 Y47.50 F1200
G1 Z5.00 F1200
G0 X30.00 Y47.50
G1 Z0.00 F1200
G1 X31.75 Y47.50 F1200
G1 Z5.00 F1200
G0 X32.25 Y47.50
G1 Z0.00 F1200
G1 X32.50 Y47.50 F1200
G1 Z5.00 F1200
G0 X33.25 Y47.50
G1 Z0.00 F1200
G1 X33.75 Y47.50 F1200
G1 Z5.00 F1200
G0 X34.00 Y47.50
G1 Z0.00 F1200
G1 X34.25 Y47.50 F1200
G1 Z5.00 F1200
G0 X34.50 Y47.50
G1 Z0.00 F1200
G1 X35.50 Y47.50 F1200
G1 Z5.00 F1200
G0 X38.50 Y47.50
G1 Z0.00 F1200
G1 X38.75 Y47.50 F1200
G1 Z5.00 F1200
G0 X39.75 Y47.50
G1 Z0.00 F1200
G1 X40.00 Y47.50 F1200
G1 Z5.00 F1200
G0 X40.50 Y47.50
G1 Z0.00 F1200
G1 X41.00 Y47.50 F1200
G1 Z5.00 F1200
G0 X41.75 Y47.50
G1 Z0.00 F1200
G1 X42.75 Y47.50 F1200
G1 Z5.00 F1200
G0 X45.00 Y47.50
G1 Z0.00 F1200
G1 X50.50 Y47.50 F1200
G1 Z5.00 F1200
G0 X51.00 Y47.50
G1 Z0.00 F1200
G1 X51.25 Y47.50 F1200
G1 Z5.00 F1200
G0 X53.25 Y47.50
G1 Z0.00 F1200
G1 X54.00 Y47.50 F1200
G1 Z5.00 F1200
G0 X54.50 Y47.50
G1 Z0.00 F1200
G1 X55.00 Y47.50 F1200
G1 Z5.00 F1200
G0 X55.75 Y47.50
G1 Z0.00 F1200
G1 X58.00 Y47.50 F1200
G1 Z5.00 F1200
G0 X42.25 Y47.75
G1 Z0.00 F1200
G1 X44.50 Y47.75 F1200
G1 Z5.00 F1200
G0 X45.25 Y47.75
G1 Z0.00 F1200
G1 X45.75 Y47.75 F1200
G1 Z5.00 F1200
G0 X46.25 Y47.75
G1 Z0.00 F1200
G1 X47.25 Y47.75 F1200
G1 Z5.00 F1200
G0 X48.75 Y47.75
G1 Z0.00 F1200
G1 X55.00 Y47.75 F1200
G1 Z5.00 F1200
G0 X57.25 Y47.75
G1 Z0.00 F1200
G1 X58.25 Y47.75 F1200
G1 Z5.00 F1200
G0 X59.00 Y47.75
G1 Z0.00 F1200
G1 X59.50 Y47.75 F1200
G1 Z5.00 F1200
G0 X60.00 Y47.75
G1 Z0.00 F1200
G1 X60.25 Y47.75 F1200
G1 Z5.00 F1200
G0 X61.50 Y47.75
G1 Z0.00 F1200
G1 X61.75 Y47.75 F1200
G1 Z5.00 F1200
G0 X64.50 Y47.75
G1 Z0.00 F1200
G1 X65.25 Y47.75 F1200
G1 Z5.00 F1200
G0 X66.25 Y47.75
G1 Z0.00 F1200
G1 X66.75 Y47.75 F1200
G1 Z5.00 F1200
G0 X67.25 Y47.75
G1 Z0.00 F1200
G1 X67.75 Y47.75 F1200
G1 Z5.00 F1200
G0 X68.25 Y47.75
G1 Z0.00 F1200
G1 X70.00 Y47.75 F1200
G1 Z5.00 F1200
G0 X72.25 Y47.75
G1 Z0.00 F1200
G1 X72.50 Y47.75 F1200
G1 Z5.00 F1200
G0 X72.75 Y47.75
G1 Z0.00 F1200
G1 X73.25 Y47.75 F1200
G1 Z5.00 F1200
G0 X75.50 Y47.75
G1 Z0.00 F1200
G1 X75.75 Y47.75 F1200
G1 Z5.00 F1200
G0 X76.00 Y47.75
G1 Z0.00 F1200
G1 X76.50 Y47.75 F1200
G1 Z5.00 F1200
G0 X23.75 Y48.00
G1 Z0.00 F1200
G1 X24.00 Y48.00 F1200
G1 Z5.00 F1200
G0 X24.25 Y48.00
G1 Z0.00 F1200
G1 X24.50 Y48.00 F1200
G1 Z5.00 F1200
G0 X26.75 Y48.00
G1 Z0.00 F1200
G1 X27.75 Y48.00 F1200
G1 Z5.00 F1200
G0 X29.75 Y48.00
G1 Z0.00 F1200
G1 X32.00 Y48.00 F1200
G1 Z5.00 F1200
G0 X32.50 Y48.00
G1 Z0.00 F1200
G1 X32.75 Y48.00 F1200
G1 Z5.00 F1200
G0 X33.25 Y48.00
G1 Z0.00 F1200
G1 X33.75 Y48.00 F1200
G1 Z5.00 F1200
G0 X35.00 Y48.00
G1 Z0.00 F1200
G1 X35.50 Y48.00 F1200
G1 Z5.00 F1200
G0 X38.00 Y48.00
G1 Z0.00 F1200
G1 X38.25 Y48.00 F1200
G1 Z5.00 F1200
G0 X39.75 Y48.00
G1 Z0.00 F1200
G1 X40.00 Y48.00 F1200
G1 Z5.00 F1200
G0 X40.50 Y48.00
G1 Z0.00 F1200
G1 X41.00 Y48.00 F1200
G1 Z5.00 F1200
G0 X41.75 Y48.00
G1 Z0.00 F1200
G1 X42.75 Y48.00 F1200
G1 Z5.00 F1200
G0 X44.75 Y48.00
G1 Z0.00 F1200
G1 X51.25 Y48.00 F1200
G1 Z5.00 F1200
G0 X52.75 Y48.00
G1 Z0.00 F1200
G1 X53.75 Y48.00 F1200
G1 Z5.00 F1200
G0 X54.25 Y48.00
G1 Z0.00 F1200
G1 X54.75 Y48.00 F1200
G1 Z5.00 F1200
G0 X55.25 Y48.00
G1 Z0.00 F1200
G1 X57.75 Y48.00 F1200
G1 Z5.00 F1200
G0 X42.25 Y48.25
G1 Z0.00 F1200
G1 X44.75 Y48.25 F1200
G1 Z5.00 F1200
G0 X45.50 Y48.25
G1 Z0.00 F1200
G1 X46.00 Y48.25 F1200
G1 Z5.00 F1200
G0 X46.50 Y48.25
G1 Z0.00 F1200
G1 X47.25 Y48.25 F1200
G1 Z5.00 F1200
G0 X49.00 Y48.25
G1 Z0.00 F1200
G1 X55.25 Y48.25 F1200
G1 Z5.00 F1200
G0 X57.25 Y48.25
G1 Z0.00 F1200
G1 X58.25 Y48.25 F1200
G1 Z5.00 F1200
G0 X59.00 Y48.25
G1 Z0.00 F1200
G1 X59.50 Y48.25 F1200
G1 Z5.00 F1200
G0 X60.00 Y48.25
G1 Z0.00 F1200
G1 X60.25 Y48.25 F1200
G1 Z5.00 F1200
G0 X64.25 Y48.25
G1 Z0.00 F1200
G1 X64.75 Y48.25 F1200
G1 Z5.00 F1200
G0 X66.25 Y48.25
G1 Z0.00 F1200
G1 X66.75 Y48.25 F1200
G1 Z5.00 F1200
G0 X67.25 Y48.25
G1 Z0.00 F1200
G1 X67.50 Y48.25 F1200
G1 Z5.00 F1200
G0 X68.00 Y48.25
G1 Z0.00 F1200
G1 X70.25 Y48.25 F1200
G1 Z5.00 F1200
G0 X72.25 Y48.25
G1 Z0.00 F1200
G1 X73.00 Y48.25 F1200
G1 Z5.00 F1200
G0 X75.25 Y48.25
G1 Z0.00 F1200
G1 X75.50 Y48.25 F1200
G1 Z5.00 F1200
G0 X76.00 Y48.25
G1 Z0.00 F1200
G1 X76.25 Y48.25 F1200
G1 Z5.00 F1200
G0 X23.75 Y48.50
G1 Z0.00 F1200
G1 X24.25 Y48.50 F1200
G1 Z5.00 F1200
G0 X24.50 Y48.50
G1 Z0.00 F1200
G1 X24.75 Y48.50 F1200
G1 Z5.00 F1200
G0 X27.00 Y48.50
G1 Z0.00 F1200
G1 X27.50 Y48.50 F1200
G1 Z5.00 F1200
G0 X29.75 Y48.50
G1 Z0.00 F1200
G1 X32.25 Y48.50 F1200
G1 Z5.00 F1200
G0 X32.50 Y48.50
G1 Z0.00 F1200
G1 X33.00 Y48.50 F1200
G1 Z5.00 F1200
G0 X33.50 Y48.50
G1 Z0.00 F1200
G1 X33.75 Y48.50 F1200
G1 Z5.00 F1200
G0 X35.50 Y48.50
G1 Z0.00 F1200
G1 X36.25 Y48.50 F1200
G1 Z5.00 F1200
G0 X39.75 Y48.50
G1 Z0.00 F1200
G1 X40.00 Y48.50 F1200
G1 Z5.00 F1200
G0 X40.50 Y48.50
G1 Z0.00 F1200
G1 X41.00 Y48.50 F1200
G1 Z5.00 F1200
G0 X41.75 Y48.50
G1 Z0.00 F1200
G1 X42.50 Y48.50 F1200
G1 Z5.00 F1200
G0 X44.75 Y48.50
G1 Z0.00 F1200
G1 X51.00 Y48.50 F1200
G1 Z5.00 F1200
G0 X52.75 Y48.50
G1 Z0.00 F1200
G1 X53.50 Y48.50 F1200
G1 Z5.00 F1200
G0 X54.00 Y48.50
G1 Z0.00 F1200
G1 X54.25 Y48.50 F1200
G1 Z5.00 F1200
G0 X55.00 Y48.50
G1 Z0.00 F1200
G1 X57.50 Y48.50 F1200
G1 Z5.00 F1200
G0 X42.50 Y48.75
G1 Z0.00 F1200
G1 X43.00 Y48.75 F1200
G1 Z5.00 F1200
G0 X43.25 Y48.75
G1 Z0.00 F1200
G1 X45.25 Y48.75 F1200
G1 Z5.00 F1200
G0 X45.75 Y48.75
G1 Z0.00 F1200
G1 X46.25 Y48.75 F1200
G1 Z5.00 F1200
G0 X46.75 Y48.75
G1 Z0.00 F1200
G1 X47.25 Y48.75 F1200
G1 Z5.00 F1200
G0 X48.50 Y48.75
G1 Z0.00 F1200
G1 X48.75 Y48.75 F1200
G1 Z5.00 F1200
G0 X49.00 Y48.75
G1 Z0.00 F1200
G1 X55.25 Y48.75 F1200
G1 Z5.00 F1200
G0 X57.50 Y48.75
G1 Z0.00 F1200
G1 X58.50 Y48.75 F1200
G1 Z5.00 F1200
G0 X59.00 Y48.75
G1 Z0.00 F1200
G1 X59.75 Y48.75 F1200
G1 Z5.00 F1200
G0 X63.25 Y48.75
G1 Z0.00 F1200
G1 X64.25 Y48.75 F1200
G1 Z5.00 F1200
G0 X66.25 Y48.75
G1 Z0.00 F1200
G1 X66.50 Y48.75 F1200
G1 Z5.00 F1200
G0 X67.00 Y48.75
G1 Z0.00 F1200
G1 X67.25 Y48.75 F1200
G1 Z5.00 F1200
G0 X67.75 Y48.75
G1 Z0.00 F1200
G1 X70.50 Y48.75 F1200
G1 Z5.00 F1200
G0 X72.50 Y48.75
G1 Z0.00 F1200
G1 X73.00 Y48.75 F1200
G1 Z5.00 F1200
G0 X75.00 Y48.75
G1 Z0.00 F1200
G1 X75.25 Y48.75 F1200
G1 Z5.00 F1200
G0 X75.75 Y48.75
G1 Z0.00 F1200
G1 X76.00 Y48.75 F1200
G1 Z5.00 F1200
G0 X24.00 Y49.00
G1 Z0.00 F1200
G1 X24.50 Y49.00 F1200
G1 Z5.00 F1200
G0 X24.75 Y49.00
G1 Z0.00 F1200
G1 X25.00 Y49.00 F1200
G1 Z5.00 F1200
G0 X27.00 Y49.00
G1 Z0.00 F1200
G1 X27.50 Y49.00 F1200
G1 Z5.00 F1200
G0 X29.50 Y49.00
G1 Z0.00 F1200
G1 X32.25 Y49.00 F1200
G1 Z5.00 F1200
G0 X32.75 Y49.00
G1 Z0.00 F1200
G1 X33.00 Y49.00 F1200
G1 Z5.00 F1200
G0 X33.50 Y49.00
G1 Z0.00 F1200
G1 X33.75 Y49.00 F1200
G1 Z5.00 F1200
G0 X36.25 Y49.00
G1 Z0.00 F1200
G1 X37.00 Y49.00 F1200
G1 Z5.00 F1200
G0 X39.50 Y49.00
G1 Z0.00 F1200
G1 X39.75 Y49.00 F1200
G1 Z5.00 F1200
G0 X40.25 Y49.00
G1 Z0.00 F1200
G1 X41.00 Y49.00 F1200
G1 Z5.00 F1200
G0 X41.50 Y49.00
G1 Z0.00 F1200
G1 X42.50 Y49.00 F1200
G1 Z5.00 F1200
G0 X44.50 Y49.00
G1 Z0.00 F1200
G1 X51.50 Y49.00 F1200
G1 Z5.00 F1200
G0 X52.50 Y49.00
G1 Z0.00 F1200
G1 X53.00 Y49.00 F1200
G1 Z5.00 F1200
G0 X53.75 Y49.00
G1 Z0.00 F1200
G1 X54.00 Y49.00 F1200
G1 Z5.00 F1200
G0 X54.75 Y49.00
G1 Z0.00 F1200
G1 X56.75 Y49.00 F1200
G1 Z5.00 F1200
G0 X57.00 Y49.00
G1 Z0.00 F1200
G1 X57.50 Y49.00 F1200
G1 Z5.00 F1200
G0 X42.75 Y49.25
G1 Z0.00 F1200
G1 X43.00 Y49.25 F1200
G1 Z5.00 F1200
G0 X43.50 Y49.25
G1 Z0.00 F1200
G1 X45.50 Y49.25 F1200
G1 Z5.00 F1200
G0 X46.25 Y49.25
G1 Z0.00 F1200
G1 X46.50 Y49.25 F1200
G1 Z5.00 F1200
G0 X47.25 Y49.25
G1 Z0.00 F1200
G1 X47.50 Y49.25 F1200
G1 Z5.00 F1200
G0 X48.75 Y49.25
G1 Z0.00 F1200
G1 X55.50 Y49.25 F1200
G1 Z5.00 F1200
G0 X57.50 Y49.25
G1 Z0.00 F1200
G1 X58.50 Y49.25 F1200
G1 Z5.00 F1200
G0 X59.25 Y49.25
G1 Z0.00 F1200
G1 X59.75 Y49.25 F1200
G1 Z5.00 F1200
G0 X60.25 Y49.25
G1 Z0.00 F1200
G1 X60.50 Y49.25 F1200
G1 Z5.00 F1200
G0 X66.25 Y49.25
G1 Z0.00 F1200
G1 X66.50 Y49.25 F1200
G1 Z5.00 F1200
G0 X66.75 Y49.25
G1 Z0.00 F1200
G1 X67.00 Y49.25 F1200
G1 Z5.00 F1200
G0 X67.50 Y49.25
G1 Z0.00 F1200
G1 X70.50 Y49.25 F1200
G1 Z5.00 F1200
G0 X72.75 Y49.25
G1 Z0.00 F1200
G1 X73.25 Y49.25 F1200
G1 Z5.00 F1200
G0 X74.75 Y49.25
G1 Z0.00 F1200
G1 X75.00 Y49.25 F1200
G1 Z5.00 F1200
G0 X75.50 Y49.25
G1 Z0.00 F1200
G1 X75.75 Y49.25 F1200
G1 Z5.00 F1200
G0 X24.25 Y49.50
G1 Z0.00 F1200
G1 X24.75 Y49.50 F1200
G1 Z5.00 F1200
G0 X25.25 Y49.50
G1 Z0.00 F1200
G1 X25.50 Y49.50 F1200
G1 Z5.00 F1200
G0 X26.75 Y49.50
G1 Z0.00 F1200
G1 X27.25 Y49.50 F1200
G1 Z5.00 F1200
G0 X29.25 Y49.50
G1 Z0.00 F1200
G1 X32.50 Y49.50 F1200
G1 Z5.00 F1200
G0 X33.00 Y49.50
G1 Z0.00 F1200
G1 X33.75 Y49.50 F1200
G1 Z5.00 F1200
G0 X39.50 Y49.50
G1 Z0.00 F1200
G1 X39.75 Y49.50 F1200
G1 Z5.00 F1200
G0 X40.25 Y49.50
G1 Z0.00 F1200
G1 X40.75 Y49.50 F1200
G1 Z5.00 F1200
G0 X41.50 Y49.50
G1 Z0.00 F1200
G1 X42.50 Y49.50 F1200
G1 Z5.00 F1200
G0 X44.50 Y49.50
G1 Z0.00 F1200
G1 X51.25 Y49.50 F1200
G1 Z5.00 F1200
G0 X52.25 Y49.50
G1 Z0.00 F1200
G1 X52.50 Y49.50 F1200
G1 Z5.00 F1200
G0 X53.25 Y49.50
G1 Z0.00 F1200
G1 X53.75 Y49.50 F1200
G1 Z5.00 F1200
G0 X54.25 Y49.50
G1 Z0.00 F1200
G1 X56.50 Y49.50 F1200
G1 Z5.00 F1200
G0 X56.75 Y49.50
G1 Z0.00 F1200
G1 X57.25 Y49.50 F1200
G1 Z5.00 F1200
G0 X42.75 Y49.75
G1 Z0.00 F1200
G1 X43.25 Y49.75 F1200
G1 Z5.00 F1200
G0 X43.75 Y49.75
G1 Z0.00 F1200
G1 X45.75 Y49.75 F1200
G1 Z5.00 F1200
G0 X46.50 Y49.75
G1 Z0.00 F1200
G1 X47.00 Y49.75 F1200
G1 Z5.00 F1200
G0 X47.50 Y49.75
G1 Z0.00 F1200
G1 X47.75 Y49.75 F1200
G1 Z5.00 F1200
G0 X49.00 Y49.75
G1 Z0.00 F1200
G1 X55.75 Y49.75 F1200
G1 Z5.00 F1200
G0 X57.50 Y49.75
G1 Z0.00 F1200
G1 X58.50 Y49.75 F1200
G1 Z5.00 F1200
G0 X59.25 Y49.75
G1 Z0.00 F1200
G1 X59.75 Y49.75 F1200
G1 Z5.00 F1200
G0 X60.25 Y49.75
G1 Z0.00 F1200
G1 X60.50 Y49.75 F1200
G1 Z5.00 F1200
G0 X66.00 Y49.75
G1 Z0.00 F1200
G1 X66.75 Y49.75 F1200
G1 Z5.00 F1200
G0 X67.25 Y49.75
G1 Z0.00 F1200
G1 X70.75 Y49.75 F1200
G1 Z5.00 F1200
G0 X72.75 Y49.75
G1 Z0.00 F1200
G1 X73.25 Y49.75 F1200
G1 Z5.00 F1200
G0 X74.00 Y49.75
G1 Z0.00 F1200
G1 X74.50 Y49.75 F1200
G1 Z5.00 F1200
G0 X75.00 Y49.75
G1 Z0.00 F1200
G1 X75.50 Y49.75 F1200
G1 Z5.00 F1200
G0 X24.75 Y50.00
G1 Z0.00 F1200
G1 X25.25 Y50.00 F1200
G1 Z5.00 F1200
G0 X25.75 Y50.00
G1 Z0.00 F1200
G1 X27.00 Y50.00 F1200
G1 Z5.00 F1200
G0 X29.25 Y50.00
G1 Z0.00 F1200
G1 X32.75 Y50.00 F1200
G1 Z5.00 F1200
G0 X33.25 Y50.00
G1 Z0.00 F1200
G1 X34.00 Y50.00 F1200
G1 Z5.00 F1200
G0 X40.25 Y50.00
G1 Z0.00 F1200
G1 X40.75 Y50.00 F1200
G1 Z5.00 F1200
G0 X41.50 Y50.00
G1 Z0.00 F1200
G1 X42.25 Y50.00 F1200
G1 Z5.00 F1200
G0 X44.25 Y50.00
G1 Z0.00 F1200
G1 X51.00 Y50.00 F1200
G1 Z5.00 F1200
G0 X52.00 Y50.00
G1 Z0.00 F1200
G1 X52.50 Y50.00 F1200
G1 Z5.00 F1200
G0 X52.75 Y50.00
G1 Z0.00 F1200
G1 X53.25 Y50.00 F1200
G1 Z5.00 F1200
G0 X54.00 Y50.00
G1 Z0.00 F1200
G1 X56.25 Y50.00 F1200
G1 Z5.00 F1200
G0 X56.75 Y50.00
G1 Z0.00 F1200
G1 X57.25 Y50.00 F1200
G1 Z5.00 F1200
G0 X42.75 Y50.25
G1 Z0.00 F1200
G1 X43.25 Y50.25 F1200
G1 Z5.00 F1200
G0 X44.00 Y50.25
G1 Z0.00 F1200
G1 X46.00 Y50.25 F1200
G1 Z5.00 F1200
G0 X46.75 Y50.25
G1 Z0.00 F1200
G1 X47.50 Y50.25 F1200
G1 Z5.00 F1200
G0 X47.75 Y50.25
G1 Z0.00 F1200
G1 X48.00 Y50.25 F1200
G1 Z5.00 F1200
G0 X49.25 Y50.25
G1 Z0.00 F1200
G1 X56.00 Y50.25 F1200
G1 Z5.00 F1200
G0 X57.75 Y50.25
G1 Z0.00 F1200
G1 X58.75 Y50.25 F1200
G1 Z5.00 F1200
G0 X59.25 Y50.25
G1 Z0.00 F1200
G1 X60.00 Y50.25 F1200
G1 Z5.00 F1200
G0 X66.00 Y50.25
G1 Z0.00 F1200
G1 X66.50 Y50.25 F1200
G1 Z5.00 F1200
G0 X67.00 Y50.25
G1 Z0.00 F1200
G1 X71.00 Y50.25 F1200
G1 Z5.00 F1200
G0 X73.00 Y50.25
G1 Z0.00 F1200
G1 X73.50 Y50.25 F1200
G1 Z5.00 F1200
G0 X74.50 Y50.25
G1 Z0.00 F1200
G1 X75.00 Y50.25 F1200
G1 Z5.00 F1200
G0 X25.25 Y50.50
G1 Z0.00 F1200
G1 X26.00 Y50.50 F1200
G1 Z5.00 F1200
G0 X26.50 Y50.50
G1 Z0.00 F1200
G1 X27.00 Y50.50 F1200
G1 Z5.00 F1200
G0 X29.00 Y50.50
G1 Z0.00 F1200
G1 X33.00 Y50.50 F1200
G1 Z5.00 F1200
G0 X33.75 Y50.50
G1 Z0.00 F1200
G1 X34.00 Y50.50 F1200
G1 Z5.00 F1200
G0 X40.00 Y50.50
G1 Z0.00 F1200
G1 X40.50 Y50.50 F1200
G1 Z5.00 F1200
G0 X41.25 Y50.50
G1 Z0.00 F1200
G1 X42.25 Y50.50 F1200
G1 Z5.00 F1200
G0 X44.00 Y50.50
G1 Z0.00 F1200
G1 X50.75 Y50.50 F1200
G1 Z5.00 F1200
G0 X51.75 Y50.50
G1 Z0.00 F1200
G1 X53.00 Y50.50 F1200
G1 Z5.00 F1200
G0 X53.75 Y50.50
G1 Z0.00 F1200
G1 X56.00 Y50.50 F1200
G1 Z5.00 F1200
G0 X56.75 Y50.50
G1 Z0.00 F1200
G1 X57.25 Y50.50 F1200
G1 Z5.00 F1200
G0 X42.75 Y50.75
G1 Z0.00 F1200
G1 X43.00 Y50.75 F1200
G1 Z5.00 F1200
G0 X44.25 Y50.75
G1 Z0.00 F1200
G1 X46.25 Y50.75 F1200
G1 Z5.00 F1200
G0 X47.00 Y50.75
G1 Z0.00 F1200
G1 X48.25 Y50.75 F1200
G1 Z5.00 F1200
G0 X49.50 Y50.75
G1 Z0.00 F1200
G1 X56.00 Y50.75 F1200
G1 Z5.00 F1200
G0 X57.75 Y50.75
G1 Z0.00 F1200
G1 X58.75 Y50.75 F1200
G1 Z5.00 F1200
G0 X59.50 Y50.75
G1 Z0.00 F1200
G1 X60.00 Y50.75 F1200
G1 Z5.00 F1200
G0 X60.75 Y50.75
G1 Z0.00 F1200
G1 X61.00 Y50.75 F1200
G1 Z5.00 F1200
G0 X65.75 Y50.75
G1 Z0.00 F1200
G1 X66.00 Y50.75 F1200
G1 Z5.00 F1200
G0 X66.75 Y50.75
G1 Z0.00 F1200
G1 X71.00 Y50.75 F1200
G1 Z5.00 F1200
G0 X73.25 Y50.75
G1 Z0.00 F1200
G1 X74.50 Y50.75 F1200
G1 Z5.00 F1200
G0 X26.25 Y51.00
G1 Z0.00 F1200
G1 X26.75 Y51.00 F1200
G1 Z5.00 F1200
G0 X28.75 Y51.00
G1 Z0.00 F1200
G1 X33.50 Y51.00 F1200
G1 Z5.00 F1200
G0 X34.25 Y51.00
G1 Z0.00 F1200
G1 X34.75 Y51.00 F1200
G1 Z5.00 F1200
G0 X38.50 Y51.00
G1 Z0.00 F1200
G1 X39.00 Y51.00 F1200
G1 Z5.00 F1200
G0 X39.75 Y51.00
G1 Z0.00 F1200
G1 X40.25 Y51.00 F1200
G1 Z5.00 F1200
G0 X41.00 Y51.00
G1 Z0.00 F1200
G1 X42.00 Y51.00 F1200
G1 Z5.00 F1200
G0 X43.75 Y51.00
G1 Z0.00 F1200
G1 X50.50 Y51.00 F1200
G1 Z5.00 F1200
G0 X51.50 Y51.00
G1 Z0.00 F1200
G1 X52.75 Y51.00 F1200
G1 Z5.00 F1200
G0 X53.50 Y51.00
G1 Z0.00 F1200
G1 X55.75 Y51.00 F1200
G1 Z5.00 F1200
G0 X57.00 Y51.00
G1 Z0.00 F1200
G1 X57.25 Y51.00 F1200
G1 Z5.00 F1200
G0 X42.75 Y51.25
G1 Z0.00 F1200
G1 X43.00 Y51.25 F1200
G1 Z5.00 F1200
G0 X44.25 Y51.25
G1 Z0.00 F1200
G1 X46.50 Y51.25 F1200
G1 Z5.00 F1200
G0 X47.25 Y51.25
G1 Z0.00 F1200
G1 X48.50 Y51.25 F1200
G1 Z5.00 F1200
G0 X49.75 Y51.25
G1 Z0.00 F1200
G1 X56.25 Y51.25 F1200
G1 Z5.00 F1200
G0 X58.00 Y51.25
G1 Z0.00 F1200
G1 X59.00 Y51.25 F1200
G1 Z5.00 F1200
G0 X59.75 Y51.25
G1 Z0.00 F1200
G1 X60.50 Y51.25 F1200
G1 Z5.00 F1200
G0 X61.25 Y51.25
G1 Z0.00 F1200
G1 X62.00 Y51.25 F1200
G1 Z5.00 F1200
G0 X64.50 Y51.25
G1 Z0.00 F1200
G1 X65.50 Y51.25 F1200
G1 Z5.00 F1200
G0 X66.25 Y51.25
G1 Z0.00 F1200
G1 X71.25 Y51.25 F1200
G1 Z5.00 F1200
G0 X73.25 Y51.25
G1 Z0.00 F1200
G1 X73.75 Y51.25 F1200
G1 Z5.00 F1200
G0 X26.25 Y51.50
G1 Z0.00 F1200
G1 X26.75 Y51.50 F1200
G1 Z5.00 F1200
G0 X28.75 Y51.50
G1 Z0.00 F1200
G1 X34.00 Y51.50 F1200
G1 Z5.00 F1200
G0 X35.00 Y51.50
G1 Z0.00 F1200
G1 X38.25 Y51.50 F1200
G1 Z5.00 F1200
G0 X39.50 Y51.50
G1 Z0.00 F1200
G1 X40.00 Y51.50 F1200
G1 Z5.00 F1200
G0 X40.75 Y51.50
G1 Z0.00 F1200
G1 X42.00 Y51.50 F1200
G1 Z5.00 F1200
G0 X43.50 Y51.50
G1 Z0.00 F1200
G1 X49.50 Y51.50 F1200
G1 Z5.00 F1200
G0 X49.75 Y51.50
G1 Z0.00 F1200
G1 X50.25 Y51.50 F1200
G1 Z5.00 F1200
G0 X51.25 Y51.50
G1 Z0.00 F1200
G1 X52.50 Y51.50 F1200
G1 Z5.00 F1200
G0 X53.25 Y51.50
G1 Z0.00 F1200
G1 X55.75 Y51.50 F1200
G1 Z5.00 F1200
G0 X44.25 Y51.75
G1 Z0.00 F1200
G1 X47.00 Y51.75 F1200
G1 Z5.00 F1200
G0 X47.50 Y51.75
G1 Z0.00 F1200
G1 X49.00 Y51.75 F1200
G1 Z5.00 F1200
G0 X50.00 Y51.75
G1 Z0.00 F1200
G1 X50.25 Y51.75 F1200
G1 Z5.00 F1200
G0 X50.50 Y51.75
G1 Z0.00 F1200
G1 X56.50 Y51.75 F1200
G1 Z5.00 F1200
G0 X58.25 Y51.75
G1 Z0.00 F1200
G1 X59.75 Y51.75 F1200
G1 Z5.00 F1200
G0 X60.25 Y51.75
G1 Z0.00 F1200
G1 X61.00 Y51.75 F1200
G1 Z5.00 F1200
G0 X63.25 Y51.75
G1 Z0.00 F1200
G1 X63.75 Y51.75 F1200
G1 Z5.00 F1200
G0 X65.75 Y51.75
G1 Z0.00 F1200
G1 X71.50 Y51.75 F1200
G1 Z5.00 F1200
G0 X73.50 Y51.75
G1 Z0.00 F1200
G1 X73.75 Y51.75 F1200
G1 Z5.00 F1200
G0 X26.00 Y52.00
G1 Z0.00 F1200
G1 X26.50 Y52.00 F1200
G1 Z5.00 F1200
G0 X28.50 Y52.00
G1 Z0.00 F1200
G1 X32.00 Y52.00 F1200
G1 Z5.00 F1200
G0 X33.25 Y52.00
G1 Z0.00 F1200
G1 X34.75 Y52.00 F1200
G1 Z5.00 F1200
G0 X38.50 Y52.00
G1 Z0.00 F1200
G1 X41.75 Y52.00 F1200
G1 Z5.00 F1200
G0 X43.25 Y52.00
G1 Z0.00 F1200
G1 X49.25 Y52.00 F1200
G1 Z5.00 F1200
G0 X49.75 Y52.00
G1 Z0.00 F1200
G1 X50.00 Y52.00 F1200
G1 Z5.00 F1200
G0 X51.00 Y52.00
G1 Z0.00 F1200
G1 X52.25 Y52.00 F1200
G1 Z5.00 F1200
G0 X53.00 Y52.00
G1 Z0.00 F1200
G1 X55.50 Y52.00 F1200
G1 Z5.00 F1200
G0 X44.50 Y52.25
G1 Z0.00 F1200
G1 X47.25 Y52.25 F1200
G1 Z5.00 F1200
G0 X48.00 Y52.25
G1 Z0.00 F1200
G1 X49.25 Y52.25 F1200
G1 Z5.00 F1200
G0 X49.75 Y52.25
G1 Z0.00 F1200
G1 X50.25 Y52.25 F1200
G1 Z5.00 F1200
G0 X50.75 Y52.25
G1 Z0.00 F1200
G1 X56.75 Y52.25 F1200
G1 Z5.00 F1200
G0 X58.50 Y52.25
G1 Z0.00 F1200
G1 X62.50 Y52.25 F1200
G1 Z5.00 F1200
G0 X64.25 Y52.25
G1 Z0.00 F1200
G1 X65.75 Y52.25 F1200
G1 Z5.00 F1200
G0 X66.00 Y52.25
G1 Z0.00 F1200
G1 X66.50 Y52.25 F1200
G1 Z5.00 F1200
G0 X68.25 Y52.25
G1 Z0.00 F1200
G1 X70.00 Y52.25 F1200
G1 Z5.00 F1200
G0 X70.50 Y52.25
G1 Z0.00 F1200
G1 X71.50 Y52.25 F1200
G1 Z5.00 F1200
G0 X73.50 Y52.25
